; HEADER_BLOCK_START
; generated by Creality_Print V7.0.0.4127 on 2026-01-28 at 22:35:54
; total layer number: 240
; filament_density: 1.24
; filament_diameter: 1.75
; max_z_height: 48.00
; creality_uuid: 0862b006-e03e-40db-887e-12afe82ee7ec
; HEADER_BLOCK_END

; MINX = 80.00
; MINY = 94.50
; MINZ = 0.00
; MAXX = 140.00
; MAXY = 125.50
; MAXZ = 48.00

; multicolor_method = 0 
; THUMBNAIL_BLOCK_START

;
; THUMBNAIL_BLOCK_END

; THUMBNAIL_BLOCK_START

;
; THUMBNAIL_BLOCK_END

; external perimeters extrusion width = 0.42mm
; perimeters extrusion width = 0.45mm
; infill extrusion width = 0.45mm
; solid infill extrusion width = 0.45mm
; top infill extrusion width = 0.42mm
; first layer extrusion width = 0.50mm

; EXECUTABLE_BLOCK_START
M73 P0 R87
M201 X500 Y500 Z500 E5000
M203 X500 Y500 Z10 E50
M204 P500 R500 T500
M205 X10.00 Y10.00 Z0.40 E5.00 ; sets the jerk limits, mm/sec
; max_print_temp = 60,220
;TYPE:Custom
M220 S100 ;Reset Feedrate
M221 S100 ;Reset Flowrate

M140 S60 ;Set final bed temp  
G28 ;Home
G92 E0 ;Reset Extruder
G1 Z2.0 F3000 ;Move Z Axis up
M104 S220 ;Set final nozzle temp  
G1 X10.1 Y20 Z0.28 F5000.0 ;Move to start position
M190 S60 ;Wait for bed temp to stabilize  
M109 S220 ;Wait for nozzle temp to stabilize  
G1 X10.1 Y145.0 Z0.28 F1500.0 E15 ;Draw the first line
G1 X10.4 Y145.0 Z0.28 F5000.0 ;Move to side a little
G1 X10.4 Y20 Z0.28 F1500.0 E30 ;Draw the second line
G92 E0  ;Reset Extruder
G1 E-1.0000 F1800 ;Retract a bit
G1 Z2.0 F3000 ;Move Z Axis up
G1 E0.0000 F1800
G90
G21
M83 ; use relative distances for extrusion
;filament start gcode
G1 E-5 F3000
G1 Z.2 F3600
M106 S0
;LAYER_CHANGE
;:0.2
;HEIGHT:0.2
;BEFORE_LAYER_CHANGE
;0.2
G92 E0
;TIME_ELAPSED:58.078922
;_SET_FAN_SPEED_CHANGING_LAYER
M204 S500
M205 X8 Y8
G1 X81.109 Y98.902 Z.6 F3600
G1 Z.2
G1 E5 F2400
;TYPE:Skirt
;WIDTH:0.5
G1 F3000
G1 X81.991 Y98.32 E.04014
G1 X82.974 Y97.854 E.04135
G1 X83.961 Y97.545 E.03931
G1 X85.005 Y97.367 E.04027
G1 X108.782 Y95.881 E.90543
G1 X110.297 Y95.844 E.05759
G1 X111.583 Y95.899 E.04893
G1 X113.302 Y96.096 E.06576
G1 X115.816 Y96.648 E.09783
G1 X118.272 Y97.513 E.09894
G1 X120.69 Y98.725 E.10282
G1 X123.035 Y100.315 E.10768
G1 X125.067 Y102.126 E.10345
G1 X126.894 Y104.243 E.10628
G1 X128.407 Y106.559 E.10514
G1 X128.965 Y107.902 E.05526
G1 X129.146 Y108.631 E.02857
G1 X129.271 Y109.653 E.03911
G1 X129.189 Y111.125 E.05603
G1 X129.025 Y111.89 E.02976
G1 X128.692 Y112.848 E.03854
G1 X127.692 Y114.621 E.07736
G1 X126.399 Y116.389 E.08325
G1 X124.781 Y118.158 E.09112
G1 X123.001 Y119.712 E.0898
G1 X121.712 Y120.639 E.06035
G1 X120.033 Y121.643 E.07437
G1 X118.354 Y122.452 E.07082
G1 X116.895 Y123.014 E.05941
G1 X115.1 Y123.542 E.07113
G1 X113.52 Y123.869 E.06131
G1 X111.745 Y124.089 E.06798
G1 X109.802 Y124.156 E.0739
G1 X84.63 Y122.586 E.95852
G1 X83.087 Y122.189 E.06056
G1 X81.991 Y121.68 E.04595
G1 X80.736 Y120.793 E.05841
G1 X79.656 Y119.629 E.06033
G1 X79.048 Y118.676 E.04295
G1 X78.613 Y117.716 E.04006
G1 X78.324 Y116.755 E.03812
G1 X78.16 Y115.761 E.0383
G1 X78.148 Y104.368 E.43302
G1 X78.455 Y102.753 E.06248
G1 X79.032 Y101.356 E.05742
G1 X79.961 Y99.99 E.0628
G1 X81.08 Y98.929 E.05861
G1 X81.384 Y99.267 F3600
G1 F3000
G1 X82.212 Y98.72 E.03774
G1 X83.136 Y98.281 E.03886
G1 X84.065 Y97.99 E.03699
G1 X85.048 Y97.822 E.03789
G1 X108.811 Y96.337 E.90491
G1 X110.295 Y96.301 E.05644
G1 X111.545 Y96.354 E.04754
G1 X113.237 Y96.549 E.06473
G1 X115.695 Y97.088 E.09564
G1 X118.088 Y97.931 E.09645
G1 X119.214 Y98.448 E.0471
G1 X120.696 Y99.26 E.06419
G1 X122.968 Y100.844 E.10528
G1 X124.851 Y102.56 E.09682
G1 X126.648 Y104.678 E.10558
G1 X128.044 Y106.851 E.09818
G1 X128.529 Y108.038 E.04873
G1 X128.815 Y109.677 E.06321
G1 X128.737 Y111.058 E.05257
G1 X128.583 Y111.775 E.02787
G1 X128.225 Y112.775 E.04037
G1 X127.225 Y114.499 E.07573
G1 X125.726 Y116.481 E.09446
G1 X124.168 Y118.113 E.08575
G1 X122.422 Y119.579 E.08666
G1 X121.044 Y120.526 E.06356
G1 X119.475 Y121.42 E.06862
G1 X118.002 Y122.105 E.06175
G1 X116.26 Y122.742 E.0705
G1 X114.784 Y123.148 E.05817
G1 X112.925 Y123.498 E.07187
G1 X111.12 Y123.672 E.06895
G1 X109.802 Y123.698 E.0501
G1 X84.701 Y122.135 E.95582
G1 X83.25 Y121.762 E.05697
G1 X82.212 Y121.28 E.04346
G1 X81.039 Y120.451 E.05459
G1 X80.024 Y119.357 E.05672
G1 X79.452 Y118.463 E.04034
G1 X79.043 Y117.56 E.03768
G1 X78.77 Y116.655 E.03591
G1 X78.615 Y115.719 E.03609
G1 X78.603 Y104.41 E.42979
G1 X78.859 Y103.002 E.0544
G1 X79.433 Y101.575 E.05844
G1 X80.311 Y100.284 E.05935
G1 X81.355 Y99.295 E.05466
; OBJECT_ID: 74
; printing object 3DBenchy.stl id:0 copy 0
G1 E-4.5
;WIPE_START
G1 X82.212 Y98.72 E-.24517
G1 X83.087 Y98.305 E-.22983
;WIPE_END
G1 E-.025
G1 X90.476 Y100.216 Z.6 F3600
G1 X119.147 Y107.63 Z.6
G1 Z.2
G1 E5 F2400
;TYPE:Inner wall
;WIDTH:0.499999
G1 F900
G1 X117.904 Y107.633 E.04727
G1 X117.277 Y107.768 E.02437
G1 X116.95 Y107.958 E.01436
G1 X116.764 Y108.152 E.01022
G1 X116.482 Y107.857 E.01554
G1 X116.047 Y107.677 E.01787
G1 X115.682 Y107.67 E.01389
G1 X115.304 Y107.801 E.01519
G1 X114.991 Y108.049 E.01519
G1 X114.739 Y108.379 E.01579
G1 X114.551 Y108.782 E.01689
G1 X114.414 Y108.42 E.01472
G1 X114.132 Y108.03 E.0183
G1 X113.731 Y107.765 E.01827
G1 X113.288 Y107.649 E.0174
G1 X112.863 Y107.674 E.01618
G1 X112.54 Y107.789 E.01302
G1 X112.305 Y107.933 E.01048
G1 X112.154 Y108.132 E.00948
G1 X111.821 Y107.825 E.01723
G1 X111.374 Y107.657 E.01811
G1 X110.953 Y107.681 E.01606
G1 X110.521 Y107.908 E.01853
G1 X110.187 Y108.238 E.01787
G1 X110.05 Y108.08 E.00795
G1 X109.561 Y107.742 E.0226
G1 X109.227 Y107.643 E.01325
G1 X108.784 Y107.689 E.01691
G1 X108.569 Y107.753 E.00854
G1 X108.294 Y107.917 E.01218
G1 X107.972 Y108.274 E.01826
G1 X107.835 Y108.634 E.01465
G1 X107.836 Y109.149 E.01955
G1 X107.991 Y109.587 E.01769
G1 X108.247 Y110.094 E.02157
G1 X108.631 Y110.752 E.02896
G1 X108.514 Y110.936 E.00827
G1 X108.277 Y111.423 E.02059
G1 X108.117 Y111.158 E.01175
G1 X107.913 Y110.945 E.01122
G1 X107.416 Y110.638 E.02222
G1 X107.149 Y110.572 E.01046
G1 X106.69 Y110.561 E.01744
G1 X106.395 Y110.622 E.01143
G1 X106.442 Y110.291 E.01271
G1 X106.465 Y109.781 E.01941
G1 X106.417 Y109.22 E.02138
G1 X106.334 Y108.679 E.02081
G1 X106.181 Y108.2 E.0191
G1 X105.905 Y107.64 E.02374
G1 X105.546 Y107.16 E.0228
G1 X105.153 Y106.803 E.02016
G1 X104.664 Y106.512 E.02165
G1 X104.153 Y106.337 E.02051
G1 X103.541 Y106.231 E.0236
G1 X102.976 Y106.193 E.02155
G1 X101.74 Y106.177 E.04697
G1 X101.371 Y106.211 E.01408
G1 X100.853 Y106.392 E.02084
G1 X100.516 Y106.685 E.01699
G1 X100.336 Y106.992 E.01352
;WIDTH:0.51298
G1 X100.231 Y107.482 E.01958
G1 X99.995 Y107.025 E.02011
;WIDTH:0.499999
G1 X99.702 Y106.694 E.01678
G1 X99.329 Y106.391 E.01826
G1 X98.698 Y106.128 E.02597
G1 X98.097 Y106.028 E.02316
G1 X97.523 Y106.023 E.02183
G1 X96.953 Y106.103 E.02188
G1 X96.518 Y106.242 E.01734
G1 X96.175 Y106.452 E.0153
G1 X95.765 Y106.774 E.0198
G1 X95.715 Y106.689 E.00375
G1 X95.499 Y106.463 E.01188
G1 X95.251 Y106.314 E.01098
G1 X94.627 Y106.189 E.0242
G1 X90.605 Y106.188 E.15285
G1 X90.227 Y106.335 E.01544
G1 X89.903 Y106.642 E.01694
G1 X89.731 Y106.9 E.01181
G1 X89.332 Y106.516 E.02106
G1 X88.724 Y106.194 E.02614
G1 X88.255 Y106.073 E.01841
G1 X87.372 Y106.025 E.03361
G1 X86.758 Y106.112 E.02356
G1 X86.426 Y106.223 E.0133
G1 X85.9 Y106.453 E.02183
G1 X85.416 Y106.799 E.02259
G1 X84.98 Y107.263 E.02419
G1 X84.987 Y105.231 E.0772
G1 X85.074 Y104.721 E.01969
G1 X85.264 Y104.453 E.01248
G1 X85.537 Y104.287 E.01211
G1 X85.865 Y104.202 E.01291
G1 X109.202 Y102.784 E.88857
G1 X110.282 Y102.76 E.04107
G1 X111.078 Y102.795 E.03029
G1 X111.853 Y102.874 E.0296
G1 X112.633 Y102.998 E.03
G1 X113.674 Y103.235 E.04061
G1 X114.432 Y103.459 E.03004
G1 X115.444 Y103.835 E.04101
G1 X116.252 Y104.202 E.03373
G1 X117.122 Y104.67 E.03756
G1 X117.808 Y105.096 E.03067
G1 X118.681 Y105.725 E.0409
G1 X119.441 Y106.363 E.0377
G1 X120.078 Y106.974 E.03357
G1 X120.519 Y107.454 E.02479
;WIDTH:0.531775
G1 X120.684 Y107.673 E.01114
;WIDTH:0.56355
G1 X120.849 Y107.892 E.01186
G1 X120.703 Y107.816 E.00715
;WIDTH:0.536352
G1 X120.556 Y107.739 E.00678
;WIDTH:0.509154
G1 X120.039 Y107.628 E.02052
;WIDTH:0.499999
G1 X119.187 Y107.63 E.03235
G1 E-4.5 F3000
;WIPE_START
G1 F900
G1 X117.904 Y107.633 E-.30489
G1 X117.277 Y107.768 E-.15231
G1 X117.212 Y107.805 E-.0178
;WIPE_END
G1 E-.025 F3000
G1 X120.075 Y111.295 Z.6 F3600
G1 Z.2
G1 E5 F2400
G1 F900
G1 X120.827 Y110.291 E.04766
G1 X121.158 Y109.738 E.0245
G1 X121.299 Y109.153 E.02287
G1 X121.306 Y108.881 E.01036
;WIDTH:0.542351
G1 X121.272 Y108.636 E.01025
;WIDTH:0.584702
G1 X121.237 Y108.392 E.01112
G1 X121.37 Y108.542 E.00904
;WIDTH:0.541958
G1 X121.762 Y109.061 E.02699
;WIDTH:0.499999
G1 X122.208 Y109.796 E.03266
G1 X122.252 Y110.035 E.00926
G1 X122.207 Y110.204 E.00665
G1 X121.781 Y110.91 E.03132
G1 X121.117 Y111.905 E.04547
G1 X120.74 Y111.516 E.02061
G1 X120.113 Y111.308 E.0251
G1 X120.711 Y113.106 F3600
;TYPE:Outer wall
;WIDTH:0.667324
G1 F900
G1 X120.635 Y113.19 E.00591
G1 E-4.5 F3000
;WIPE_START
G1 F900
G1 X120.711 Y113.106 E-.475
;WIPE_END
G1 E-.025 F3000
G1 X113.236 Y111.565 Z.6 F3600
G1 X100.243 Y108.888 Z.6
G1 Z.2
G1 E5 F2400
;TYPE:Inner wall
;WIDTH:0.567086
G1 F900
G1 X100.26 Y109.018 E.00573
;WIDTH:0.531887
G1 X100.277 Y109.149 E.00535
;WIDTH:0.496688
G1 X100.295 Y109.279 E.00496
;WIDTH:0.461488
G1 X100.294 Y110.147 E.03019
G1 X100.119 Y109.821 E.01286
G1 X99.809 Y109.475 E.01618
G1 X99.925 Y109.336 E.0063
;WIDTH:0.496688
G1 X100.031 Y109.187 E.00691
;WIDTH:0.531887
G1 X100.137 Y109.037 E.00744
;WIDTH:0.567086
G1 X100.219 Y108.921 E.00624
G1 E-4.5 F3000
;WIPE_START
G1 F900
G1 X100.26 Y109.018 E-.02514
G1 X100.277 Y109.149 E-.03123
G1 X100.295 Y109.279 E-.03123
G1 X100.294 Y110.147 E-.206
G1 X100.119 Y109.821 E-.08776
G1 X99.856 Y109.527 E-.09363
;WIPE_END
G1 E-.025 F3000
G1 X92.239 Y109.044 Z.6 F3600
G1 X87.508 Y108.744 Z.6
G1 Z.2
G1 E5 F2400
;WIDTH:0.499999
G1 F900
G1 X88.013 Y108.99 E.02137
G1 X88.479 Y109.186 E.0192
G1 X88.915 Y109.248 E.01672
G1 X89.226 Y109.19 E.01201
G1 X89.687 Y108.934 E.02002
G1 X89.983 Y108.519 E.01941
G1 X90.119 Y108.643 E.007
G1 X90.406 Y108.801 E.01245
G1 X90.873 Y108.883 E.01799
G1 X91.443 Y108.842 E.02175
G1 X91.425 Y109.153 E.01184
G1 X91.442 Y111.92 E.10517
G1 X91.415 Y112.615 E.02644
G1 X91.473 Y112.919 E.01175
G1 X91.676 Y113.31 E.01675
G1 X91.992 Y113.566 E.01546
G1 X92.247 Y113.682 E.01065
G1 X92.655 Y113.766 E.01583
G1 X93.069 Y113.723 E.01582
G1 X93.479 Y113.55 E.01691
G1 X93.798 Y113.25 E.01664
G1 X93.999 Y112.874 E.01621
G1 X94.099 Y112.348 E.02038
G1 X94.083 Y108.863 E.13243
G1 X94.807 Y108.819 E.02759
G1 X95.293 Y108.663 E.01939
G1 X95.627 Y108.404 E.01605
G1 X95.816 Y108.617 E.01082
G1 X96.047 Y108.831 E.01197
G1 X96.306 Y108.937 E.01064
G1 X96.11 Y109.333 E.01681
G1 X96.04 Y109.856 E.02005
G1 X96.131 Y110.243 E.01508
G1 X96.272 Y110.489 E.01078
G1 X96.633 Y110.798 E.01807
;WIDTH:0.481684
G1 X96.833 Y110.865 E.00767
;WIDTH:0.465619
G1 X96.716 Y110.845 E.00418
;WIDTH:0.499999
G1 X96.397 Y110.864 E.01212
G1 X95.949 Y111.044 E.01834
G1 X95.739 Y111.204 E.01005
G1 X95.482 Y111.557 E.01661
G1 X95.361 Y111.96 E.01597
G1 X95.353 Y112.323 E.01379
G1 X95.516 Y112.872 E.02178
G1 X95.8 Y113.262 E.01833
G1 X95.976 Y113.415 E.00885
G1 X96.502 Y113.71 E.02293
G1 X97.035 Y113.853 E.02098
G1 X97.925 Y113.909 E.03389
G1 X98.443 Y113.84 E.01986
G1 X99.214 Y113.557 E.03124
G1 X99.711 Y113.186 E.02357
G1 X100.042 Y112.785 E.01973
G1 X100.273 Y112.422 E.01636
G1 X100.353 Y112.867 E.01717
G1 X100.541 Y113.266 E.01677
G1 X100.829 Y113.553 E.01544
G1 X101.095 Y113.689 E.01136
G1 X101.569 Y113.772 E.01831
G1 X102.125 Y113.734 E.02117
G1 X102.883 Y113.74 E.02883
G1 X103.502 Y113.7 E.02355
G1 X104.254 Y113.546 E.0292
G1 X104.468 Y113.464 E.00869
G1 X104.942 Y113.181 E.02098
G1 X105.118 Y113.029 E.00886
G1 X105.173 Y113.162 E.00547
G1 X105.444 Y113.626 E.02042
G1 X105.71 Y113.848 E.01318
G1 X106.12 Y114.093 E.01815
G1 X106.649 Y114.216 E.02063
G1 X107.076 Y114.188 E.01625
G1 X107.664 Y113.947 E.02417
G1 X107.967 Y113.709 E.01463
G1 X108.164 Y113.451 E.01233
G1 X108.306 Y113.612 E.00815
G1 X108.614 Y113.8 E.01373
G1 X109.013 Y113.89 E.01554
G1 X109.412 Y113.848 E.01527
G1 X109.825 Y113.618 E.01795
G1 X110.119 Y113.267 E.01739
G1 X110.229 Y113.428 E.00741
G1 X110.622 Y113.792 E.02036
G1 X111.013 Y113.934 E.01581
G1 X111.424 Y113.938 E.01564
G1 X111.712 Y113.802 E.01207
;WIDTH:0.453186
G1 X111.999 Y113.667 E.01083
;WIDTH:0.450003
G1 X112.111 Y113.576 E.00491
;WIDTH:0.493632
G1 X112.224 Y113.485 E.00543
;WIDTH:0.537261
G1 X112.337 Y113.394 E.00596
G1 X112.454 Y113.186 E.00979
;WIDTH:0.545426
G1 X112.52 Y112.949 E.0103
;WIDTH:0.573109
G1 X112.586 Y112.711 E.01086
G1 X112.534 Y112.466 E.01107
;WIDTH:0.532398
G1 X112.483 Y112.22 E.01022
;WIDTH:0.504332
G1 X112.285 Y111.736 E.02006
;WIDTH:0.550712
G1 X112.01 Y111.226 E.02444
;WIDTH:0.597091
G1 X111.735 Y110.717 E.02667
G1 X111.803 Y110.559 E.00795
G1 X112.097 Y110.067 E.02636
G1 X112.514 Y111.104 E.05148
;WIDTH:0.550712
G1 X112.728 Y111.603 E.02294
;WIDTH:0.504332
G1 X112.943 Y112.168 E.02319
;WIDTH:0.534733
G1 X113.035 Y112.456 E.01235
;WIDTH:0.573109
G1 X113.126 Y112.744 E.01332
G1 X112.95 Y113.224 E.02256
;WIDTH:0.537261
G1 X112.728 Y113.701 E.02161
G1 X112.407 Y113.873 E.01497
;WIDTH:0.493297
G1 X112.204 Y113.969 E.00842
;WIDTH:0.449333
G1 X112 Y114.065 E.0076
;WIDTH:0.452684
G1 X111.821 Y114.213 E.00792
;WIDTH:0.499999
G1 X111.642 Y114.361 E.00883
G1 X111.528 Y114.536 E.00795
G1 X111.47 Y114.75 E.00842
G1 X111.45 Y115.275 E.01997
G1 X111.632 Y115.778 E.02032
G1 X111.958 Y116.169 E.01934
G1 X112.243 Y116.344 E.01274
G1 X112.487 Y116.42 E.0097
;WIDTH:0.505496
G1 X112.872 Y116.473 E.01497
G1 X113.567 Y116.339 E.02719
;WIDTH:0.518498
G1 X114.046 Y116.152 E.02036
G1 X114.207 Y116.051 E.00752
;WIDTH:0.509606
G1 X114.634 Y115.655 E.02259
;WIDTH:0.499999
G1 X114.96 Y115.165 E.02237
G1 X115.245 Y114.533 E.02635
G1 X115.632 Y113.537 E.04059
G1 X115.894 Y112.805 E.02957
G1 X115.97 Y112.523 E.0111
;WIDTH:0.455015
G1 X116.047 Y112.241 E.01001
;WIDTH:0.410031
G1 X116.224 Y111.72 E.01682
;WIDTH:0.426968
G1 X116.347 Y111.428 E.0101
;WIDTH:0.463161
G1 X116.47 Y111.137 E.01105
;WIDTH:0.499353
G1 X116.593 Y110.846 E.012
;WIDTH:0.53341
G1 X116.696 Y110.564 E.01224
;WIDTH:0.567467
G1 X116.799 Y110.282 E.01309
;WIDTH:0.601523
G1 X116.902 Y110 E.01394
G1 X117.167 Y110.146 E.01404
G1 X117.555 Y110.257 E.01876
G1 X117.292 Y110.578 E.01927
G1 X117.16 Y110.788 E.01153
;WIDTH:0.558859
G1 X117.027 Y110.998 E.01065
;WIDTH:0.516195
G1 X116.895 Y111.208 E.00977
;WIDTH:0.473531
G1 X116.762 Y111.418 E.00889
;WIDTH:0.430866
G1 X116.476 Y112.035 E.02195
;WIDTH:0.426843
G1 X116.419 Y112.292 E.00839
;WIDTH:0.464602
G1 X116.362 Y112.549 E.00921
;WIDTH:0.499999
G1 X116.379 Y112.862 E.01193
G1 X116.446 Y113.092 E.00912
G1 X116.627 Y113.443 E.01501
G1 X117.048 Y113.797 E.02089
G1 X117.33 Y113.914 E.01162
G1 X117.688 Y113.958 E.0137
G1 X119.141 Y113.918 E.05526
G1 X118.378 Y114.505 E.03658
G1 X117.559 Y115.058 E.03756
G1 X116.963 Y115.418 E.02645
G1 X116.417 Y115.71 E.02354
G1 X115.575 Y116.101 E.03529
G1 X114.811 Y116.404 E.03125
;WIDTH:0.518498
G1 X113.488 Y116.818 E.0548
;WIDTH:0.505496
G1 X112.447 Y117.036 E.04091
;WIDTH:0.499999
G1 X111.62 Y117.154 E.03176
G1 X110.753 Y117.224 E.03304
G1 X109.833 Y117.24 E.03499
G1 X109.192 Y117.215 E.02438
G1 X86.082 Y115.811 E.87994
G1 X85.56 Y115.738 E.02003
G1 X85.277 Y115.561 E.01266
G1 X85.09 Y115.325 E.01146
G1 X84.988 Y114.914 E.01608
G1 X84.982 Y112.639 E.08645
G1 X85.235 Y112.958 E.01547
G1 X85.723 Y113.366 E.02415
G1 X86.405 Y113.711 E.02908
G1 X87.188 Y113.89 E.0305
G1 X87.884 Y113.899 E.02646
G1 X88.577 Y113.78 E.02672
G1 X89.016 Y113.615 E.01783
G1 X89.458 Y113.333 E.01991
G1 X89.771 Y113.03 E.01659
G1 X90.055 Y112.597 E.01968
G1 X90.209 Y112.195 E.01634
G1 X90.199 Y111.77 E.01617
G1 X90.087 Y111.46 E.01254
G1 X89.9 Y111.181 E.01276
G1 X89.695 Y110.981 E.01087
G1 X89.368 Y110.795 E.0143
G1 X88.986 Y110.694 E.01502
G1 X88.52 Y110.712 E.01769
G1 X88.131 Y110.854 E.01576
G1 X87.75 Y111.167 E.01876
