; HEADER_BLOCK_START
; generated by Creality_Print V7.0.0.4127 on 2026-02-04 at 18:43:02
; total layer number: 10
; filament_density: 1.24
; filament_diameter: 1.75
; max_z_height: 2.00
; creality_uuid: c5f2a4ae-20b0-4648-ad9f-0fe76d40189d
; HEADER_BLOCK_END

; MINX = 84.50
; MINY = 84.50
; MINZ = 0.00
; MAXX = 135.50
; MAXY = 135.50
; MAXZ = 2.00

; multicolor_method = 0 
; THUMBNAIL_BLOCK_START

;
; THUMBNAIL_BLOCK_END

; THUMBNAIL_BLOCK_START

;
; THUMBNAIL_BLOCK_END

; external perimeters extrusion width = 0.45mm
; perimeters extrusion width = 0.45mm
; infill extrusion width = 0.45mm
; solid infill extrusion width = 0.45mm
; top infill extrusion width = 0.42mm
; first layer extrusion width = 0.45mm

; EXECUTABLE_BLOCK_START
M73 P0 R10
M201 X500 Y500 Z500 E5000
M203 X500 Y500 Z10 E50
M204 P500 R500 T500
M205 X10.00 Y10.00 Z0.40 E5.00 ; sets the jerk limits, mm/sec
; max_print_temp = 60,220
;TYPE:Custom
M220 S100 ;Reset Feedrate
M221 S100 ;Reset Flowrate

M140 S60 ;Set final bed temp  
G28 ;Home
G92 E0 ;Reset Extruder
G1 Z2.0 F3000 ;Move Z Axis up
M104 S220 ;Set final nozzle temp  
G1 X10.1 Y20 Z0.28 F5000.0 ;Move to start position
M190 S60 ;Wait for bed temp to stabilize  
M109 S220 ;Wait for nozzle temp to stabilize  
G1 X10.1 Y145.0 Z0.28 F1500.0 E15 ;Draw the first line
G1 X10.4 Y145.0 Z0.28 F5000.0 ;Move to side a little
G1 X10.4 Y20 Z0.28 F1500.0 E30 ;Draw the second line
G92 E0  ;Reset Extruder
G1 E-1.0000 F1800 ;Retract a bit
M73 P1 R10
G1 Z2.0 F3000 ;Move Z Axis up
G1 E0.0000 F1800
G90
G21
M83 ; use relative distances for extrusion
;filament start gcode
G1 E-5 F3000
G1 Z.2 F3600
M106 S0
;LAYER_CHANGE
;:0.2
;HEIGHT:0.2
;BEFORE_LAYER_CHANGE
;0.2
G92 E0
;TIME_ELAPSED:51.259533
;_SET_FAN_SPEED_CHANGING_LAYER
M204 S500
M205 X8 Y8
G1 X82.423 Y80.499 Z.6 F3600
G1 Z.2
M73 P2 R10
G1 E5 F2400
;TYPE:Skirt
;WIDTH:0.45
G1 F3000
G1 X83.163 Y79.741 E.03583
G1 X85.118 Y78.854 E.07269
G1 X86.501 Y78.688 E.04712
G1 X132.501 Y78.688 E1.55705
G1 X134.611 Y79.084 E.07269
G1 X136.612 Y80.391 E.08091
G1 X139.609 Y83.389 E.14349
G1 X140.821 Y85.162 E.07269
G1 X141.312 Y87.5 E.08085
G1 X141.312 Y133.5 E1.55705
G1 X140.915 Y135.61 E.07269
G1 X139.78 Y137.433 E.07269
G1 X138.723 Y138.338 E.04709
G1 X135.726 Y140.336 E.12192
G1 X133.75 Y141.176 E.07269
G1 X132.501 Y141.312 E.04253
G1 X86.501 Y141.312 E1.55705
G1 X84.39 Y140.916 E.07269
G1 X82.389 Y139.609 E.08088
G1 X80.391 Y137.611 E.09564
G1 X79.179 Y135.838 E.07269
G1 X78.688 Y133.5 E.08088
G1 X78.688 Y87.5 E1.55705
G1 X79.085 Y85.39 E.07269
G1 X79.664 Y84.276 E.0425
G1 X81.662 Y81.278 E.12195
G1 X82.395 Y80.527 E.03551
G1 X82.684 Y80.813 F3600
G1 F3000
G1 X83.458 Y80.032 E.0372
G1 X85.36 Y79.216 E.07007
G1 X86.501 Y79.095 E.03881
G1 X132.501 Y79.095 E1.55705
G1 X134.532 Y79.491 E.07007
M73 P3 R10
G1 X136.325 Y80.679 E.07278
G1 X139.322 Y83.677 E.14349
G1 X140.478 Y85.394 E.07007
G1 X140.905 Y87.5 E.07272
G1 X140.905 Y133.5 E1.55705
G1 X140.508 Y135.532 E.07007
G1 X139.377 Y137.266 E.07007
G1 X138.497 Y137.999 E.03878
G1 X135.5 Y139.997 E.12192
G1 X133.589 Y140.794 E.07007
G1 X132.501 Y140.905 E.03705
G1 X86.501 Y140.905 E1.55705
G1 X84.469 Y140.509 E.07007
G1 X82.677 Y139.321 E.07275
G1 X80.679 Y137.323 E.09564
G1 X79.523 Y135.606 E.07007
G1 X79.095 Y133.5 E.07275
G1 X79.095 Y87.5 E1.55705
G1 X79.492 Y85.468 E.07007
M73 P3 R9
G1 X80.003 Y84.501 E.03702
G1 X82.001 Y81.503 E.12195
G1 X82.656 Y80.842 E.03152
; OBJECT_ID: 110
; printing object Tremendous Hillar.stl id:0 copy 0
G1 E-4.5
;WIPE_START
G1 F5760
G1 X83.458 Y80.032 E-.27054
G1 X84.249 Y79.693 E-.20446
;WIPE_END
G1 E-.025 F3000
G1 X86.225 Y87.065 Z.6 F3600
G1 X98.593 Y133.204 Z.6
G1 Z.2
G1 E5 F2400
;TYPE:Outer wall
;WIDTH:0.45
G1 F1200
M73 P4 R9
G1 X87.204 Y133.204 E.38552
G1 X87.204 Y135.145 E.06571
G1 X86.813 Y135.145 E.01322
G1 X86.797 Y134.987 E.00537
;WIDTH:0.492155
G1 X86.797 Y134.541 E.01665
;WIDTH:0.534309
G1 X86.797 Y134.095 E.01822
;WIDTH:0.576464
G1 X86.797 Y133.649 E.01978
;WIDTH:0.618618
G1 X86.797 Y133.204 E.02134
G1 X86.746 Y133.204 E.00244
;WIDTH:0.576464
G1 X86.695 Y133.204 E.00226
;WIDTH:0.534309
G1 X86.644 Y133.204 E.00208
;WIDTH:0.492155
G1 X86.593 Y133.204 E.0019
;WIDTH:0.45
G1 X84.856 Y133.204 E.05882
G1 X84.856 Y132.813 E.01322
G1 X85.014 Y132.796 E.00537
;WIDTH:0.492155
G1 X85.46 Y132.796 E.01665
;WIDTH:0.534309
G1 X85.905 Y132.796 E.01822
;WIDTH:0.576464
G1 X86.351 Y132.796 E.01978
;WIDTH:0.618618
G1 X86.797 Y132.796 E.02134
G1 X86.797 Y132.746 E.00244
;WIDTH:0.576464
G1 X86.797 Y132.695 E.00226
;WIDTH:0.534309
G1 X86.797 Y132.644 E.00208
;WIDTH:0.492155
G1 X86.797 Y132.593 E.0019
;WIDTH:0.45
G1 X86.797 Y121.204 E.38552
G1 X84.856 Y121.204 E.06571
G1 X84.856 Y120.813 E.01322
G1 X85.014 Y120.796 E.00537
;WIDTH:0.492155
G1 X85.46 Y120.796 E.01665
;WIDTH:0.534309
G1 X85.905 Y120.796 E.01822
;WIDTH:0.576464
G1 X86.351 Y120.796 E.01978
;WIDTH:0.618618
G1 X86.797 Y120.796 E.02134
G1 X86.797 Y120.746 E.00244
;WIDTH:0.576464
G1 X86.797 Y120.695 E.00226
;WIDTH:0.534309
G1 X86.797 Y120.644 E.00208
;WIDTH:0.492155
G1 X86.797 Y120.593 E.0019
;WIDTH:0.45
G1 X86.797 Y110.204 E.35167
G1 X84.856 Y110.204 E.06571
G1 X84.856 Y109.813 E.01322
G1 X85.014 Y109.796 E.00537
;WIDTH:0.492155
G1 X85.46 Y109.796 E.01665
;WIDTH:0.534309
G1 X85.905 Y109.796 E.01822
;WIDTH:0.576464
G1 X86.351 Y109.796 E.01978
;WIDTH:0.618618
G1 X86.797 Y109.796 E.02134
G1 X86.797 Y109.746 E.00244
;WIDTH:0.576464
G1 X86.797 Y109.695 E.00226
;WIDTH:0.534309
G1 X86.797 Y109.644 E.00208
;WIDTH:0.492155
G1 X86.797 Y109.593 E.0019
;WIDTH:0.45
G1 X86.797 Y99.204 E.35167
G1 X84.856 Y99.204 E.06571
G1 X84.856 Y98.813 E.01322
G1 X85.016 Y98.755 E.00537
;WIDTH:0.492155
G1 X85.471 Y98.759 E.01665
;WIDTH:0.534309
G1 X85.926 Y98.773 E.01822
;WIDTH:0.576464
G1 X86.382 Y98.779 E.01978
;WIDTH:0.618618
G1 X86.834 Y98.783 E.02134
G1 X86.839 Y98.736 E.00244
;WIDTH:0.576464
G1 X86.829 Y98.679 E.00226
;WIDTH:0.534309
G1 X86.823 Y98.621 E.00208
;WIDTH:0.492155
G1 X86.817 Y98.562 E.0019
;WIDTH:0.45
G1 X86.812 Y88.167 E.35167
G1 X84.868 Y88.161 E.06571
G1 X84.858 Y87.775 E.01322
G1 X85.016 Y87.754 E.00537
;WIDTH:0.492155
G1 X85.471 Y87.758 E.01665
;WIDTH:0.534309
G1 X85.927 Y87.772 E.01822
;WIDTH:0.576464
G1 X86.382 Y87.779 E.01978
;WIDTH:0.618618
G1 X86.835 Y87.783 E.02134
G1 X86.839 Y87.736 E.00244
;WIDTH:0.576464
G1 X86.829 Y87.678 E.00226
;WIDTH:0.534309
G1 X86.823 Y87.621 E.00208
;WIDTH:0.492155
G1 X86.817 Y87.562 E.0019
;WIDTH:0.45
G1 X86.812 Y84.817 E.09266
G1 X87.200 Y84.812 E.01322
G1 X87.223 Y84.984 E.00567
;WIDTH:0.492155
G1 X87.224 Y85.698 E.02591
;WIDTH:0.534309
G1 X87.225 Y86.408 E.02834
;WIDTH:0.576464
G1 X87.223 Y87.119 E.03077
;WIDTH:0.618618
G1 X87.220 Y87.826 E.0332
G1 X87.268 Y87.837 E.00244
;WIDTH:0.576464
G1 X87.323 Y87.831 E.00226
;WIDTH:0.534309
G1 X87.383 Y87.824 E.00208
;WIDTH:0.492155
G1 X87.445 Y87.820 E.0019
;WIDTH:0.45
G1 X98.842 Y87.817 E.38552
G1 X98.846 Y84.872 E.09955
G1 X99.224 Y84.854 E.01322
G1 X99.245 Y85.020 E.00567
;WIDTH:0.492155
G1 X99.237 Y85.721 E.02591
;WIDTH:0.534309
G1 X99.234 Y86.425 E.02834
;WIDTH:0.576464
G1 X99.230 Y87.130 E.03077
;WIDTH:0.618618
G1 X99.225 Y87.832 E.0332
G1 X99.271 Y87.840 E.00244
;WIDTH:0.576464
G1 X99.325 Y87.831 E.00226
;WIDTH:0.534309
G1 X99.383 Y87.824 E.00208
;WIDTH:0.492155
G1 X99.443 Y87.819 E.0019
;WIDTH:0.45
G1 X109.840 Y87.816 E.35167
G1 X109.845 Y84.872 E.09955
M73 P5 R9
G1 X110.224 Y84.855 E.01322
G1 X110.245 Y85.021 E.00567
;WIDTH:0.492155
G1 X110.237 Y85.722 E.02591
;WIDTH:0.534309
G1 X110.235 Y86.426 E.02834
;WIDTH:0.576464
G1 X110.230 Y87.131 E.03077
;WIDTH:0.618618
G1 X110.225 Y87.833 E.0332
G1 X110.271 Y87.840 E.00244
;WIDTH:0.576464
G1 X110.325 Y87.832 E.00226
;WIDTH:0.534309
G1 X110.384 Y87.825 E.00208
;WIDTH:0.492155
G1 X110.444 Y87.820 E.0019
;WIDTH:0.45
G1 X120.841 Y87.816 E.35167
G1 X120.845 Y84.872 E.09955
G1 X121.224 Y84.855 E.01322
G1 X121.245 Y85.021 E.00567
;WIDTH:0.492155
G1 X121.237 Y85.722 E.02591
;WIDTH:0.534309
G1 X121.235 Y86.426 E.02834
;WIDTH:0.576464
G1 X121.230 Y87.131 E.03077
;WIDTH:0.618618
G1 X121.225 Y87.833 E.0332
G1 X121.271 Y87.840 E.00244
;WIDTH:0.576464
G1 X121.325 Y87.832 E.00226
;WIDTH:0.534309
G1 X121.383 Y87.825 E.00208
;WIDTH:0.492155
G1 X121.443 Y87.820 E.0019
;WIDTH:0.45
G1 X131.840 Y87.816 E.35167
G1 X131.846 Y84.872 E.09955
G1 X132.223 Y84.855 E.01322
G1 X132.245 Y85.021 E.00567
;WIDTH:0.492155
G1 X132.237 Y85.722 E.02591
;WIDTH:0.534309
G1 X132.235 Y86.426 E.02834
;WIDTH:0.576464
G1 X132.230 Y87.131 E.03077
;WIDTH:0.618618
G1 X132.225 Y87.833 E.0332
G1 X132.271 Y87.840 E.00244
;WIDTH:0.576464
G1 X132.325 Y87.831 E.00226
;WIDTH:0.534309
G1 X132.383 Y87.824 E.00208
;WIDTH:0.492155
G1 X132.443 Y87.820 E.0019
;WIDTH:0.45
G1 X135.187 Y87.816 E.09263
G1 X135.192 Y88.204 E.01322
G1 X135.018 Y88.225 E.00567
;WIDTH:0.492155
G1 X134.317 Y88.228 E.0259
;WIDTH:0.534309
G1 X133.603 Y88.225 E.02833
;WIDTH:0.576464
G1 X132.894 Y88.218 E.03076
;WIDTH:0.618618
G1 X132.190 Y88.213 E.03319
G1 X132.181 Y88.260 E.00244
;WIDTH:0.576464
G1 X132.181 Y88.315 E.00226
;WIDTH:0.534309
G1 X132.186 Y88.378 E.00208
;WIDTH:0.492155
G1 X132.191 Y88.441 E.0019
;WIDTH:0.45
G1 X132.194 Y98.840 E.35167
G1 X135.138 Y98.847 E.09952
G1 X135.148 Y99.231 E.01322
G1 X134.985 Y99.253 E.00567
;WIDTH:0.492155
G1 X134.292 Y99.254 E.0259
;WIDTH:0.534309
G1 X133.583 Y99.241 E.02833
;WIDTH:0.576464
G1 X132.878 Y99.228 E.03076
;WIDTH:0.618618
G1 X132.177 Y99.219 E.03319
G1 X132.171 Y99.265 E.00244
;WIDTH:0.576464
G1 X132.174 Y99.321 E.00226
;WIDTH:0.534309
G1 X132.180 Y99.382 E.00208
;WIDTH:0.492155
G1 X132.186 Y99.443 E.0019
;WIDTH:0.45
G1 X132.191 Y109.840 E.35167
G1 X135.136 Y109.846 E.09952
G1 X135.146 Y110.229 E.01322
G1 X134.983 Y110.251 E.00567
;WIDTH:0.492155
G1 X134.289 Y110.250 E.0259
;WIDTH:0.534309
G1 X133.582 Y110.238 E.02833
;WIDTH:0.576464
G1 X132.877 Y110.226 E.03076
;WIDTH:0.618618
G1 X132.176 Y110.218 E.03319
G1 X132.171 Y110.264 E.00244
;WIDTH:0.576464
G1 X132.173 Y110.320 E.00226
;WIDTH:0.534309
G1 X132.180 Y110.382 E.00208
;WIDTH:0.492155
G1 X132.186 Y110.443 E.0019
;WIDTH:0.45
G1 X132.191 Y120.840 E.35167
G1 X135.136 Y120.846 E.09952
G1 X135.146 Y121.230 E.01322
G1 X134.984 Y121.252 E.00567
;WIDTH:0.492155
G1 X134.290 Y121.251 E.0259
;WIDTH:0.534309
G1 X133.582 Y121.239 E.02833
;WIDTH:0.576464
G1 X132.877 Y121.226 E.03076
;WIDTH:0.618618
G1 X132.176 Y121.219 E.03319
G1 X132.171 Y121.265 E.00244
;WIDTH:0.576464
G1 X132.173 Y121.321 E.00226
;WIDTH:0.534309
G1 X132.180 Y121.382 E.00208
;WIDTH:0.492155
G1 X132.186 Y121.443 E.0019
;WIDTH:0.45
G1 X132.191 Y132.840 E.38552
G1 X135.135 Y132.846 E.09952
G1 X135.146 Y133.230 E.01322
G1 X134.984 Y133.253 E.00567
;WIDTH:0.492155
G1 X134.290 Y133.252 E.0259
;WIDTH:0.534309
G1 X133.582 Y133.239 E.02833
;WIDTH:0.576464
G1 X132.877 Y133.226 E.03076
;WIDTH:0.618618
G1 X132.176 Y133.219 E.03319
G1 X132.171 Y133.265 E.00244
;WIDTH:0.576464
G1 X132.173 Y133.321 E.00226
;WIDTH:0.534309
G1 X132.180 Y133.382 E.00208
;WIDTH:0.492155
G1 X132.186 Y133.444 E.0019
;WIDTH:0.45
G1 X132.191 Y135.190 E.05882
G1 X131.805 Y135.196 E.01322
M73 P6 R9
G1 X131.785 Y135.031 E.00537
;WIDTH:0.492155
G1 X131.781 Y134.556 E.01665
;WIDTH:0.534309
G1 X131.782 Y134.087 E.01822
;WIDTH:0.576464
G1 X131.784 Y133.626 E.01978
;WIDTH:0.618618
G1 X131.786 Y133.172 E.02134
G1 X131.738 Y133.166 E.00244
;WIDTH:0.576464
G1 X131.681 Y133.173 E.00226
;WIDTH:0.534309
G1 X131.624 Y133.180 E.00208
;WIDTH:0.492155
G1 X131.567 Y133.186 E.0019
;WIDTH:0.45
G1 X121.172 Y133.191 E.35167
G1 X121.167 Y135.135 E.06571
G1 X120.779 Y135.144 E.01322
G1 X120.760 Y134.992 E.00537
;WIDTH:0.492155
G1 X120.765 Y134.533 E.01665
;WIDTH:0.534309
G1 X120.769 Y134.072 E.01822
;WIDTH:0.576464
G1 X120.773 Y133.615 E.01978
;WIDTH:0.618618
G1 X120.778 Y133.163 E.02134
G1 X120.731 Y133.159 E.00244
;WIDTH:0.576464
G1 X120.676 Y133.168 E.00226
;WIDTH:0.534309
G1 X120.620 Y133.175 E.00208
;WIDTH:0.492155
G1 X120.564 Y133.182 E.0019
;WIDTH:0.45
G1 X110.169 Y133.188 E.35167
G1 X110.165 Y135.133 E.06571
G1 X109.777 Y135.143 E.01322
G1 X109.758 Y134.990 E.00537
;WIDTH:0.492155
G1 X109.763 Y134.533 E.01665
;WIDTH:0.534309
G1 X109.768 Y134.072 E.01822
;WIDTH:0.576464
G1 X109.772 Y133.615 E.01978
;WIDTH:0.618618
G1 X109.777 Y133.164 E.02134
G1 X109.730 Y133.159 E.00244
;WIDTH:0.576464
G1 X109.675 Y133.168 E.00226
;WIDTH:0.534309
G1 X109.619 Y133.175 E.00208
;WIDTH:0.492155
G1 X109.563 Y133.182 E.0019
;WIDTH:0.45
G1 X99.169 Y133.188 E.35167
G1 X99.164 Y135.133 E.06571
G1 X98.777 Y135.143 E.01322
G1 X98.758 Y134.991 E.00537
;WIDTH:0.492155
G1 X98.763 Y134.533 E.01665
;WIDTH:0.534309
G1 X98.767 Y134.072 E.01822
;WIDTH:0.576464
G1 X98.772 Y133.615 E.01978
;WIDTH:0.618618
G1 X98.777 Y133.163 E.02134
G1 X98.730 Y133.159 E.00244
;WIDTH:0.576464
G1 X98.675 Y133.167 E.00226
;WIDTH:0.534309
G1 X98.619 Y133.175 E.00208
;WIDTH:0.492155
G1 X98.603 Y133.182 E.00041
G1 E-4.5 F3000
;WIPE_START
G1 F5760
G1 X96.597 Y133.188 E-.475
;WIPE_END
G1 E-.025 F3000
G1 X104.225 Y133.103 Z.6 F3600
G1 X131.771 Y132.789 Z.6
G1 Z.2
G1 E5 F2400
;WIDTH:0.45
G1 F1200
G1 X121.193 Y132.796 E.35856
G1 X121.191 Y121.204 E.39241
G1 X131.583 Y121.192 E.35167
G1 X131.799 Y121.190 E.00689
G1 X131.814 Y132.750 E.39105
G1 E-4.5 F3000
;WIPE_START
G1 F5760
M73 P7 R9
G1 X129.817 Y132.768 E-.475
;WIPE_END
G1 E-.025 F3000
G1 X131.065 Y125.242 Z.6 F3600
G1 X131.802 Y120.789 Z.6
G1 Z.2
G1 E5 F2400
G1 F1200
G1 X121.411 Y120.772 E.35167
;WIDTH:0.498049
G1 X121.197 Y120.771 E.0077
;WIDTH:0.45
G1 X121.189 Y110.183 E.35856
G1 X131.783 Y110.174 E.35856
G1 X131.795 Y120.731 E.3572
G1 E-4.5 F3000
;WIPE_START
G1 F5760
G1 X129.799 Y120.757 E-.475
;WIPE_END
G1 E-.025 F3000
G1 X125.219 Y126.874 Z.6 F3600
G1 X120.788 Y132.802 Z.6
G1 Z.2
G1 E5 F2400
G1 F1200
G1 X110.190 Y132.814 E.35856
G1 X110.180 Y121.222 E.39241
G1 X120.571 Y121.201 E.35167
G1 X120.785 Y121.197 E.00689
G1 X120.802 Y132.756 E.39105
G1 E-4.5 F3000
;WIPE_START
M73 P8 R9
G1 F5760
G1 X118.807 Y132.773 E-.475
;WIPE_END
G1 E-.025 F3000
G1 X120.058 Y125.246 Z.6 F3600
G1 X120.797 Y120.791 Z.6
G1 Z.2
G1 E5 F2400
G1 F1200
G1 X110.408 Y120.773 E.35167
;WIDTH:0.492155
G1 X110.348 Y120.772 E.0019
;WIDTH:0.534309
G1 X110.289 Y120.776 E.00208
;WIDTH:0.576464
G1 X110.231 Y120.782 E.00226
;WIDTH:0.618618
G1 X110.173 Y120.786 E.00244
;WIDTH:0.498049
G1 X110.168 Y120.586 E.0077
;WIDTH:0.45
G1 X110.172 Y110.185 E.35167
G1 X120.769 Y110.173 E.35856
G1 X120.782 Y120.732 E.3572
G1 E-4.5 F3000
;WIPE_START
G1 F5760
G1 X118.790 Y120.757 E-.475
;WIPE_END
G1 E-.025 F3000
G1 X114.162 Y126.834 Z.6 F3600
G1 X109.783 Y132.597 Z.6
G1 Z.2
G1 E5 F2400
;WIDTH:0.451554
G1 F1200
G1 X109.779 Y132.812 E.00692
;WIDTH:0.45
G1 X99.188 Y132.820 E.35856
G1 X99.180 Y121.230 E.39241
G1 X109.774 Y121.208 E.35856
G1 X109.785 Y132.553 E.38416
G1 E-4.5 F3000
;WIPE_START
M73 P9 R9
G1 F5760
G1 X109.792 Y132.808 E-.05784
G1 X108.040 Y132.819 E-.41716
;WIPE_END
G1 E-.025 F3000
G1 X100.402 Y132.651 Z.6 F3600
G1 X98.780 Y132.609 Z.6
G1 Z.2
G1 E5 F2400
G1 F1200
G1 X98.771 Y132.807 E.00689
G1 X87.179 Y132.811 E.39241
G1 X87.173 Y121.222 E.39241
G1 X98.770 Y121.204 E.39241
G1 X98.781 Y132.550 E.38416
G1 E-4.5 F3000
;WIPE_START
G1 F5760
G1 X98.789 Y132.806 E-.05784
G1 X97.038 Y132.818 E-.41716
;WIPE_END
G1 E-.025 F3000
G1 X98.137 Y125.266 Z.6 F3600
G1 X98.788 Y120.798 Z.6
G1 Z.2
G1 E5 F2400
G1 F1200
G1 X87.196 Y120.778 E.39241
G1 X87.188 Y110.185 E.35856
G1 X98.579 Y110.173 E.38552
G1 X98.796 Y110.179 E.00689
G1 X98.811 Y120.742 E.3572
G1 E-4.5 F3000
;WIPE_START
M73 P10 R9
G1 F5760
G1 X96.815 Y120.761 E-.475
;WIPE_END
G1 E-.025 F3000
G1 X104.437 Y120.784 Z.6 F3600
G1 X109.812 Y120.796 Z.6
G1 Z.2
G1 E5 F2400
G1 F1200
G1 X99.228 Y120.798 E.35856
G1 X99.218 Y110.205 E.35856
G1 X109.807 Y110.193 E.35856
G1 X109.817 Y120.740 E.3572
G1 E-4.5 F3000
;WIPE_START
G1 F5760
G1 X107.817 Y120.764 E-.475
;WIPE_END
G1 E-.025 F3000
G1 X109.174 Y113.259 Z.6 F3600
G1 X109.801 Y109.788 Z.6
G1 Z.2
G1 E5 F2400
G1 F1200
G1 X99.411 Y109.768 E.35167
G1 X99.198 Y109.768 E.00689
G1 X99.190 Y99.181 E.35856
G1 X109.784 Y99.171 E.35856
G1 X109.796 Y109.729 E.3572
G1 E-4.5 F3000
