; HEADER_BLOCK_START
; generated by Creality_Print V7.0.0.4127 on 2026-01-28 at 22:37:24
; total layer number: 100
; filament_density: 1.24
; filament_diameter: 1.75
; max_z_height: 20.00
; creality_uuid: 889e1e5d-86ef-459c-a6dd-7819bdba4e13
; HEADER_BLOCK_END

; MINX = 100.00
; MINY = 100.00
; MINZ = 0.00
; MAXX = 120.00
; MAXY = 120.00
; MAXZ = 20.00

; multicolor_method = 0 
; THUMBNAIL_BLOCK_START

;
; THUMBNAIL_BLOCK_END

; THUMBNAIL_BLOCK_START

;
; THUMBNAIL_BLOCK_END

; external perimeters extrusion width = 0.42mm
; perimeters extrusion width = 0.45mm
; infill extrusion width = 0.45mm
; solid infill extrusion width = 0.45mm
; top infill extrusion width = 0.42mm
; first layer extrusion width = 0.50mm

; EXECUTABLE_BLOCK_START
M73 P0 R18
M201 X500 Y500 Z500 E5000
M203 X500 Y500 Z10 E50
M204 P500 R500 T500
M205 X10.00 Y10.00 Z0.40 E5.00 ; sets the jerk limits, mm/sec
; max_print_temp = 60,220
;TYPE:Custom
M220 S100 ;Reset Feedrate
M221 S100 ;Reset Flowrate

M140 S60 ;Set final bed temp  
G28 ;Home
G92 E0 ;Reset Extruder
G1 Z2.0 F3000 ;Move Z Axis up
M104 S220 ;Set final nozzle temp  
G1 X10.1 Y20 Z0.28 F5000.0 ;Move to start position
M190 S60 ;Wait for bed temp to stabilize  
M109 S220 ;Wait for nozzle temp to stabilize  
G1 X10.1 Y145.0 Z0.28 F1500.0 E15 ;Draw the first line
G1 X10.4 Y145.0 Z0.28 F5000.0 ;Move to side a little
G1 X10.4 Y20 Z0.28 F1500.0 E30 ;Draw the second line
G92 E0  ;Reset Extruder
G1 E-1.0000 F1800 ;Retract a bit
G1 Z2.0 F3000 ;Move Z Axis up
G1 E0.0000 F1800
G90
G21
M83 ; use relative distances for extrusion
;filament start gcode
G1 E-5 F3000
G1 Z.2 F3600
M106 S0
;LAYER_CHANGE
;:0.2
;HEIGHT:0.2
;BEFORE_LAYER_CHANGE
;0.2
G92 E0

;_SET_FAN_SPEED_CHANGING_LAYER
M204 S500
M205 X8 Y8
M73 P1 R18
G1 X98.482 Y99.029 Z.6 F3600
G1 Z.2
G1 E5 F2400
;TYPE:Skirt
;WIDTH:0.5
G1 F3000
G1 X100.013 Y97.62 E.07908
G1 X100.627 Y97.149 E.0294
G1 X102.384 Y96.035 E.07908
G1 X103.557 Y95.457 E.04971
G1 X105.511 Y94.74 E.07908
G1 X107.541 Y94.285 E.07908
G1 X108.308 Y94.184 E.0294
G1 X109.613 Y94.099 E.04971
G1 X111.692 Y94.184 E.07908
G1 X113.742 Y94.54 E.07908
G1 X114.489 Y94.74 E.0294
G1 X115.728 Y95.161 E.04971
G1 X117.616 Y96.035 E.07908
G1 X119.373 Y97.149 E.07908
G1 X119.987 Y97.62 E.0294
G1 X121.518 Y99.029 E.07908
G1 X122.38 Y100.013 E.04971
G1 X123.578 Y101.714 E.07908
G1 X123.965 Y102.384 E.0294
G1 X124.543 Y103.557 E.04971
G1 X125.26 Y105.511 E.07908
G1 X125.46 Y106.258 E.0294
G1 X125.816 Y108.308 E.07908
G1 X125.901 Y109.613 E.04971
G1 X125.816 Y111.692 E.07908
G1 X125.46 Y113.742 E.07908
G1 X125.26 Y114.489 E.0294
G1 X124.839 Y115.728 E.04971
G1 X123.965 Y117.616 E.07908
G1 X123.578 Y118.286 E.0294
G1 X122.38 Y119.987 E.07908
G1 X121.518 Y120.971 E.04971
G1 X119.987 Y122.38 E.07908
G1 X119.373 Y122.851 E.0294
G1 X117.616 Y123.964 E.07908
G1 X115.728 Y124.839 E.07908
G1 X114.489 Y125.26 E.04971
G1 X112.459 Y125.715 E.07908
G1 X111.692 Y125.816 E.0294
G1 X110.387 Y125.901 E.04971
G1 X108.308 Y125.816 E.07908
G1 X106.258 Y125.46 E.07908
G1 X105.511 Y125.26 E.0294
G1 X103.557 Y124.543 E.07908
G1 X102.384 Y123.965 E.04971
G1 X101.714 Y123.578 E.0294
G1 X100.013 Y122.38 E.07908
G1 X98.482 Y120.971 E.07908
G1 X97.62 Y119.987 E.04971
G1 X96.422 Y118.286 E.07908
G1 X96.036 Y117.616 E.0294
G1 X95.161 Y115.728 E.07908
G1 X94.74 Y114.489 E.04971
G1 X94.285 Y112.459 E.07908
G1 X94.184 Y111.692 E.0294
G1 X94.099 Y110.387 E.04971
G1 X94.184 Y108.308 E.07908
G1 X94.54 Y106.258 E.07908
G1 X94.74 Y105.511 E.0294
G1 X95.457 Y103.557 E.07908
G1 X96.035 Y102.384 E.04971
G1 X96.422 Y101.714 E.0294
G1 X97.62 Y100.013 E.07908
G1 X98.456 Y99.06 E.04819
G1 X98.8 Y99.361 F3600
G1 F3000
G1 X98.826 Y99.331 E.00152
G1 X100.314 Y97.964 E.07681
G1 X102.586 Y96.445 E.10386
G1 X103.76 Y95.867 E.04971
G1 X105.658 Y95.173 E.07681
G1 X108.338 Y94.64 E.10386
G1 X109.643 Y94.555 E.04971
G1 X111.662 Y94.64 E.07681
G1 X114.342 Y95.173 E.10386
G1 X116.24 Y95.867 E.07681
G1 X117.414 Y96.445 E.04971
G1 X119.686 Y97.964 E.10386
G1 X120.669 Y98.826 E.04971
G1 X122.036 Y100.314 E.07681
G1 X123.555 Y102.586 E.10386
G1 X124.133 Y103.76 E.04971
G1 X124.827 Y105.658 E.07681
G1 X125.36 Y108.338 E.10386
G1 X125.445 Y109.643 E.04971
G1 X125.36 Y111.662 E.07681
G1 X124.827 Y114.342 E.10386
G1 X124.406 Y115.581 E.04971
G1 X123.555 Y117.414 E.07681
G1 X122.036 Y119.686 E.10386
G1 X120.669 Y121.174 E.07681
G1 X119.686 Y122.036 E.04971
G1 X117.414 Y123.555 E.10386
G1 X115.581 Y124.406 E.07681
G1 X114.342 Y124.827 E.04971
G1 X111.662 Y125.36 E.10386
G1 X110.357 Y125.445 E.04971
G1 X108.338 Y125.36 E.07681
G1 X105.658 Y124.827 E.10386
G1 X103.76 Y124.133 E.07681
G1 X102.586 Y123.555 E.04971
G1 X100.314 Y122.036 E.10386
G1 X98.826 Y120.669 E.07681
G1 X97.964 Y119.686 E.04971
G1 X96.445 Y117.414 E.10386
G1 X95.867 Y116.24 E.04971
G1 X95.173 Y114.342 E.07681
G1 X94.64 Y111.662 E.10386
G1 X94.555 Y110.357 E.04971
G1 X94.64 Y108.338 E.07681
G1 X95.173 Y105.658 E.10386
G1 X95.594 Y104.419 E.04971
G1 X96.445 Y102.586 E.07681
G1 X97.964 Y100.314 E.10386
G1 X98.773 Y99.391 E.04667
; OBJECT_ID: 163
; printing object 圆柱.stl id:0 copy 0
G1 E-4.5
;WIPE_START
G1 X98.826 Y99.331 E-.019
G1 X100.24 Y98.032 E-.456
;WIPE_END
G1 E-.025
G1 X103.536 Y103.536 Z.6 F3600
G1 Z.2
G1 E5 F2400
;TYPE:Inner wall
;WIDTH:0.499999
G1 F900
G1 X104.435 Y102.748 E.04544
G1 X105.429 Y102.084 E.04545
G1 X106.502 Y101.555 E.04544
G1 X107.634 Y101.17 E.04545
G1 X108.807 Y100.937 E.04543
G1 X110.006 Y100.859 E.04569
G1 X111.193 Y100.937 E.04521
G1 X112.366 Y101.17 E.04544
G1 X113.498 Y101.555 E.04545
G1 X114.571 Y102.084 E.04544
G1 X115.565 Y102.748 E.04545
G1 X116.464 Y103.536 E.04544
G1 X117.252 Y104.435 E.04544
G1 X117.916 Y105.429 E.04545
G1 X118.445 Y106.502 E.04544
G1 X118.83 Y107.634 E.04545
G1 X119.063 Y108.807 E.04544
G1 X119.141 Y110 E.04544
G1 X119.063 Y111.193 E.04544
G1 X118.83 Y112.366 E.04544
G1 X118.445 Y113.498 E.04545
G1 X117.916 Y114.571 E.04544
G1 X117.252 Y115.565 E.04545
G1 X116.464 Y116.464 E.04544
G1 X115.565 Y117.252 E.04544
G1 X114.571 Y117.916 E.04545
G1 X113.498 Y118.445 E.04544
G1 X112.366 Y118.83 E.04545
G1 X111.193 Y119.063 E.04544
G1 X110 Y119.141 E.04543
G1 X108.801 Y119.062 E.04569
G1 X107.634 Y118.83 E.04521
G1 X106.502 Y118.445 E.04545
G1 X105.429 Y117.916 E.04544
G1 X104.435 Y117.252 E.04545
G1 X103.536 Y116.464 E.04544
G1 X102.748 Y115.565 E.04544
G1 X102.084 Y114.571 E.04544
G1 X101.555 Y113.498 E.04544
G1 X101.17 Y112.366 E.04545
G1 X100.937 Y111.193 E.04544
G1 X100.859 Y110 E.04543
G1 X100.938 Y108.801 E.04569
G1 X101.17 Y107.634 E.04521
G1 X101.555 Y106.502 E.04545
G1 X102.084 Y105.429 E.04544
G1 X102.748 Y104.435 E.04545
G1 X103.51 Y103.566 E.04392
G1 X103.212 Y103.212 F3600
;TYPE:Outer wall
M73 P2 R18
G1 F900
G1 X104.156 Y102.384 E.04772
G1 X105.2 Y101.687 E.04772
G1 X106.327 Y101.132 E.04772
G1 X107.516 Y100.728 E.04772
G1 X108.747 Y100.483 E.04772
G1 X110.006 Y100.401 E.04797
G1 X111.253 Y100.483 E.04748
G1 X112.484 Y100.728 E.04772
G1 X113.673 Y101.132 E.04772
G1 X114.8 Y101.687 E.04772
G1 X115.844 Y102.384 E.04772
G1 X116.788 Y103.212 E.04772
G1 X117.616 Y104.156 E.04772
G1 X118.313 Y105.2 E.04772
G1 X118.868 Y106.327 E.04772
G1 X119.272 Y107.516 E.04772
G1 X119.517 Y108.747 E.04772
G1 X119.599 Y110 E.04772
G1 X119.517 Y111.253 E.04772
G1 X119.272 Y112.484 E.04772
G1 X118.868 Y113.673 E.04772
G1 X118.313 Y114.8 E.04772
G1 X117.616 Y115.844 E.04772
G1 X116.788 Y116.788 E.04772
G1 X115.844 Y117.616 E.04772
G1 X114.8 Y118.313 E.04772
G1 X113.673 Y118.868 E.04772
G1 X112.484 Y119.272 E.04772
G1 X111.253 Y119.517 E.04772
G1 X110 Y119.599 E.04772
G1 X108.741 Y119.516 E.04797
G1 X107.516 Y119.272 E.04748
G1 X106.327 Y118.868 E.04772
G1 X105.2 Y118.313 E.04772
G1 X104.156 Y117.616 E.04772
G1 X103.212 Y116.788 E.04772
G1 X102.384 Y115.844 E.04772
G1 X101.687 Y114.8 E.04772
G1 X101.132 Y113.673 E.04772
G1 X100.728 Y112.484 E.04772
G1 X100.483 Y111.253 E.04772
G1 X100.401 Y110 E.04772
G1 X100.484 Y108.741 E.04797
G1 X100.728 Y107.516 E.04748
G1 X101.132 Y106.327 E.04772
G1 X101.687 Y105.2 E.04772
G1 X102.384 Y104.156 E.04772
G1 X103.186 Y103.242 E.0462
G1 E-4.5 F3000
;WIPE_START
G1 F900
G1 X104.156 Y102.384 E-.30763
G1 X104.742 Y101.993 E-.16737
;WIPE_END
G1 E-.025 F3000
G1 X114.92 Y102.482 Z.6 F3600
G1 Z.2
G1 E5 F2400
;TYPE:Bottom surface
;WIDTH:0.505821
G1 F1200
G1 X116.246 Y103.808 E.07214
G1 X116.98 Y104.644 E.04284
G1 X117.619 Y105.601 E.04429
G1 X117.847 Y106.063 E.01983
G1 X113.937 Y102.153 E.21284
G1 X113.367 Y101.872 E.02446
G1 X112.813 Y101.684 E.02251
G1 X118.316 Y107.187 E.29954
G1 X118.498 Y107.723 E.02179
G1 X118.572 Y108.098 E.01472
G1 X111.902 Y101.428 E.36311
G1 X111.094 Y101.274 E.03166
G1 X118.726 Y108.906 E.41545
G1 X118.772 Y109.607 E.02702
G1 X110.393 Y101.228 E.45608
G1 X110.006 Y101.203 E.01493
G1 X109.731 Y101.221 E.01061
G1 X118.78 Y110.27 E.49256
G1 X118.74 Y110.884 E.0237
G1 X109.116 Y101.261 E.52384
G1 X108.851 Y101.278 E.01022
G1 X108.541 Y101.34 E.01219
G1 X118.66 Y111.459 E.55086
G1 X118.552 Y112.005 E.02143
G1 X107.995 Y101.448 E.57467
G1 X107.723 Y101.502 E.01066
G1 X107.477 Y101.586 E.00999
G1 X118.414 Y112.523 E.59534
G1 X118.248 Y113.011 E.01987
M73 P3 R18
G1 X106.989 Y101.752 E.61292
G1 X106.633 Y101.872 E.01444
G1 X106.514 Y101.931 E.00514
G1 X118.069 Y113.486 E.62899
G1 X117.853 Y113.925 E.01882
G1 X106.075 Y102.147 E.64109
G1 X105.637 Y102.364 E.01882
G1 X117.636 Y114.363 E.65319
G1 X117.619 Y114.399 E.00152
G1 X117.378 Y114.759 E.0167
G1 X105.241 Y102.622 E.66068
G1 X104.848 Y102.884 E.01817
G1 X117.116 Y115.152 E.66777
G1 X116.98 Y115.356 E.00943
G1 X116.833 Y115.523 E.00858
G1 X104.477 Y103.167 E.67257
G1 X104.128 Y103.473 E.01786
M73 P3 R17
G1 X116.527 Y115.872 E.67491
G1 X116.221 Y116.221 E.01786
G1 X103.779 Y103.779 E.67724
G1 X103.473 Y104.128 E.01786
G1 X115.872 Y116.527 E.67491
G1 X115.523 Y116.833 E.01786
G1 X103.167 Y104.477 E.67257
G1 X103.02 Y104.644 E.00858
G1 X102.884 Y104.848 E.00944
G1 X115.152 Y117.116 E.66777
G1 X114.759 Y117.378 E.01817
M73 P4 R17
G1 X102.622 Y105.241 E.66068
G1 X102.364 Y105.637 E.01821
G1 X114.363 Y117.636 E.65318
G1 X113.925 Y117.853 E.01882
G1 X102.147 Y106.075 E.64109
G1 X101.931 Y106.514 E.01882
G1 X113.486 Y118.069 E.62899
G1 X113.367 Y118.128 E.00513
G1 X113.011 Y118.249 E.01445
G1 X101.751 Y106.989 E.61291
G1 X101.586 Y107.477 E.01987
G1 X112.523 Y118.414 E.59534
G1 X112.277 Y118.498 E.00998
G1 X112.005 Y118.552 E.01066
G1 X101.448 Y107.995 E.57466
G1 X101.34 Y108.541 E.02143
G1 X111.459 Y118.66 E.55085
G1 X111.148 Y118.722 E.01221
G1 X110.884 Y118.74 E.0102
G1 X101.261 Y109.117 E.52381
G1 X101.22 Y109.731 E.02368
G1 X110.269 Y118.78 E.49258
G1 X110 Y118.798 E.01038
G1 X109.606 Y118.771 E.0152
G1 X101.228 Y110.393 E.45605
G1 X101.274 Y111.094 E.02702
G1 X108.905 Y118.725 E.41539
G1 X108.098 Y118.572 E.03162
G1 X101.428 Y111.902 E.3631
G1 X101.502 Y112.277 E.01472
G1 X101.684 Y112.813 E.0218
G1 X107.187 Y118.316 E.29952
G1 X106.633 Y118.128 E.0225
G1 X106.063 Y117.847 E.02447
G1 X102.153 Y113.937 E.21282
G1 X102.381 Y114.399 E.01982
G1 X103.02 Y115.356 E.04429
G1 X103.755 Y116.193 E.04289
G1 X105.079 Y117.518 E.07208
G1 E-4.5 F3000
;WIPE_START
G1 F1200
M73 P5 R17
G1 X103.755 Y116.193 E-.44475
G1 X103.671 Y116.098 E-.03025
;WIPE_END
G1 E-.025 F3000
G1 X107.776 Y118.605 Z.6 F3600
G1 Z.2
G1 E5 F2400
;TYPE:Gap infill
;WIDTH:0.0977685
G1 F900
G1 X107.403 Y118.406 E.00193
G1 X105.539 Y117.685 F3600
;WIDTH:0.115209
G1 F900
G1 X105.367 Y117.544 E.00134
;WIDTH:0.132649
G1 X105.195 Y117.402 E.00166
G1 E-4.5 F3000
;WIPE_START
G1 F900
G1 X105.367 Y117.544 E-.475
;WIPE_END
G1 E-.025 F3000
G1 X102.067 Y113.714 Z.6 F3600
G1 Z.2
G1 E5 F2400
;WIDTH:0.251736
G1 F900
G1 X101.887 Y113.463 E.00536
;WIDTH:0.228119
G1 X101.707 Y113.213 E.00475
G1 E-4.5 F3000
;WIPE_START
G1 F900
G1 X101.887 Y113.463 E-.475
;WIPE_END
G1 E-.025 F3000
G1 X107 Y107.797 Z.6 F3600
G1 X112.596 Y101.594 Z.6
G1 Z.2
G1 E5 F2400
;WIDTH:0.128825
G1 F900
G1 X112.224 Y101.395 E.00302
G1 E-4.5 F3000
;WIPE_START
G1 F900
G1 X112.596 Y101.594 E-.475
;WIPE_END
G1 E-.025 F3000
G1 X114.805 Y102.597 Z.6 F3600
G1 Z.2
G1 E5 F2400
;WIDTH:0.15009
G1 F900
G1 X114.633 Y102.456 E.00199
;WIDTH:0.13265
G1 X114.46 Y102.315 E.00166
G1 E-4.5 F3000
;WIPE_START
G1 F900
G1 X114.633 Y102.456 E-.475
;WIPE_END
G1 E-.025 F3000
G1 X118.293 Y106.788 Z.6 F3600
G1 Z.2
G1 E5 F2400
;WIDTH:0.204563
G1 F900
G1 X118.113 Y106.537 E.00415
;WIDTH:0.228159
G1 X117.933 Y106.286 E.00475
; stop printing object 圆柱.stl id:0 copy 0
;TIME_ELAPSED:59.649426

M106 S255
;LAYER_CHANGE
;:0.4
;HEIGHT:0.2
;BEFORE_LAYER_CHANGE
;0.4
G92 E0

G1 E-4.5 F3000
;WIPE_START
G1 F900
G1 X118.113 Y106.537 E-.475
;WIPE_END
G1 E-.025 F3000
;_SET_FAN_SPEED_CHANGING_LAYER
M205 X10 Y10
M205 X8 Y8
G17
G3 Z.6 I.418 J1.143 P1  F7200
G1 X124.319 Y104.269 Z.6
G1 Z.4
G1 E5 F2400
M205 X10 Y10
;TYPE:Skirt
;WIDTH:0.5
G1 F3000
G1 X124.827 Y105.658 E.0562
G1 X125.36 Y108.338 E.10386
G1 X125.445 Y109.643 E.04971
G1 X125.36 Y111.662 E.07681
G1 X124.827 Y114.342 E.10386
G1 X124.406 Y115.581 E.04971
G1 X123.555 Y117.414 E.07681
G1 X122.036 Y119.686 E.10386
G1 X120.669 Y121.174 E.07681
G1 X119.686 Y122.036 E.04971
G1 X117.414 Y123.555 E.10386
G1 X115.581 Y124.406 E.07681
G1 X114.342 Y124.827 E.04971
G1 X111.662 Y125.36 E.10386
G1 X110.357 Y125.445 E.04971
G1 X108.338 Y125.36 E.07681
G1 X105.658 Y124.827 E.10386
G1 X103.76 Y124.133 E.07681
G1 X102.586 Y123.555 E.04971
G1 X100.314 Y122.036 E.10386
G1 X98.826 Y120.669 E.07681
G1 X97.964 Y119.686 E.04971
G1 X96.445 Y117.414 E.10386
G1 X95.867 Y116.24 E.04971
G1 X95.173 Y114.342 E.07681
G1 X94.64 Y111.662 E.10386
G1 X94.555 Y110.357 E.04971
G1 X94.64 Y108.338 E.07681
G1 X95.173 Y105.658 E.10386
G1 X95.594 Y104.419 E.04971
G1 X96.445 Y102.586 E.07681
G1 X97.964 Y100.314 E.10386
G1 X98.826 Y99.331 E.04971
G1 X100.314 Y97.964 E.07681
G1 X102.586 Y96.445 E.10386
G1 X103.76 Y95.867 E.04971
G1 X105.658 Y95.173 E.07681
G1 X108.338 Y94.64 E.10386
G1 X109.643 Y94.555 E.04971
G1 X111.662 Y94.64 E.07681
G1 X114.342 Y95.173 E.10386
G1 X116.24 Y95.867 E.07681
G1 X117.414 Y96.445 E.04971
G1 X119.686 Y97.964 E.10386
G1 X120.669 Y98.826 E.04971
G1 X122.036 Y100.314 E.07681
G1 X123.555 Y102.586 E.10386
G1 X124.133 Y103.76 E.04971
G1 X124.305 Y104.231 E.01909
; OBJECT_ID: 163
; printing object 圆柱.stl id:0 copy 0
G1 E-4.5
;WIPE_START
G1 X124.827 Y105.658 E-.36068
G1 X124.921 Y106.13 E-.11432
;WIPE_END
G1 E-.025
M205 X8 Y8
G1 X117.351 Y105.156 Z.8 F7200
G1 X103.355 Y103.356 Z.8
G1 Z.4
G1 E5 F2400
M205 X10 Y10
;TYPE:Inner wall
;WIDTH:0.449999
G1 F3600
G1 X104.296 Y102.535 E.04226
G1 X105.302 Y101.862 E.04096
G1 X106.404 Y101.319 E.0416
G1 X107.568 Y100.924 E.0416
G1 X108.773 Y100.684 E.04159
G1 X110.019 Y100.605 E.04226
G1 X111.226 Y100.684 E.04096
G1 X112.432 Y100.924 E.0416
G1 X113.595 Y101.318 E.04159
G1 X114.714 Y101.873 E.04226
G1 X115.72 Y102.545 E.04096
G1 X116.644 Y103.356 E.0416
G1 X117.455 Y104.28 E.0416
G1 X118.138 Y105.302 E.04161
G1 X118.681 Y106.404 E.0416
G1 X119.076 Y107.568 E.04161
G1 X119.316 Y108.774 E.04161
G1 X119.397 Y110 E.0416
G1 X119.316 Y111.226 E.0416
G1 X119.076 Y112.432 E.0416
G1 X118.682 Y113.595 E.04159
G1 X118.127 Y114.714 E.04226
G1 X117.455 Y115.72 E.04096
G1 X116.645 Y116.644 E.04158
G1 X115.704 Y117.465 E.04226
G1 X114.698 Y118.138 E.04096
G1 X113.596 Y118.681 E.0416
G1 X112.432 Y119.076 E.0416
G1 X111.226 Y119.316 E.04161
G1 X110 Y119.397 E.0416
G1 X108.774 Y119.316 E.0416
G1 X107.568 Y119.076 E.0416
G1 X106.405 Y118.682 E.04159
G1 X105.286 Y118.127 E.04226
G1 X104.28 Y117.455 E.04096
G1 X103.356 Y116.645 E.04158
G1 X102.535 Y115.704 E.04226
G1 X101.862 Y114.698 E.04096
G1 X101.319 Y113.596 E.0416
G1 X100.924 Y112.432 E.0416
G1 X100.684 Y111.226 E.04161
G1 X100.603 Y110 E.0416
G1 X100.684 Y108.774 E.0416
G1 X100.924 Y107.568 E.0416
G1 X101.318 Y106.405 E.04159
G1 X101.873 Y105.286 E.04226
G1 X102.545 Y104.28 E.04096
G1 X103.329 Y103.386 E.04023
M205 X8 Y8
G1 X103.079 Y103.077 F7200
M205 X10 Y10
;TYPE:Outer wall
;WIDTH:0.419999
G1 F3000
G1 X104.057 Y102.223 E.04071
G1 X105.105 Y101.522 E.03954
G1 X106.254 Y100.956 E.04015
