; HEADER_BLOCK_START
; generated by Creality_Print V7.0.0.4127 on 2026-01-28 at 22:36:14
; total layer number: 161
; filament_density: 1.24
; filament_diameter: 1.75
; max_z_height: 32.20
; creality_uuid: 36214ea2-9cc2-4735-97f4-88c8df4e0ad3
; HEADER_BLOCK_END

; MINX = 100.00
; MINY = 100.00
; MINZ = 0.00
; MAXX = 120.00
; MAXY = 120.00
; MAXZ = 32.27

; multicolor_method = 0 
; THUMBNAIL_BLOCK_START

;
; THUMBNAIL_BLOCK_END

; THUMBNAIL_BLOCK_START

;
; THUMBNAIL_BLOCK_END

; external perimeters extrusion width = 0.42mm
; perimeters extrusion width = 0.45mm
; infill extrusion width = 0.45mm
; solid infill extrusion width = 0.45mm
; top infill extrusion width = 0.42mm
; first layer extrusion width = 0.50mm

; EXECUTABLE_BLOCK_START
M73 P0 R25
M201 X500 Y500 Z500 E5000
M203 X500 Y500 Z10 E50
M204 P500 R500 T500
M205 X10.00 Y10.00 Z0.40 E5.00 ; sets the jerk limits, mm/sec
; max_print_temp = 60,220
;TYPE:Custom
M220 S100 ;Reset Feedrate
M221 S100 ;Reset Flowrate

M140 S60 ;Set final bed temp  
G28 ;Home
G92 E0 ;Reset Extruder
G1 Z2.0 F3000 ;Move Z Axis up
M104 S220 ;Set final nozzle temp  
G1 X10.1 Y20 Z0.28 F5000.0 ;Move to start position
M190 S60 ;Wait for bed temp to stabilize  
M109 S220 ;Wait for nozzle temp to stabilize  
G1 X10.1 Y145.0 Z0.28 F1500.0 E15 ;Draw the first line
G1 X10.4 Y145.0 Z0.28 F5000.0 ;Move to side a little
G1 X10.4 Y20 Z0.28 F1500.0 E30 ;Draw the second line
G92 E0  ;Reset Extruder
G1 E-1.0000 F1800 ;Retract a bit
G1 Z2.0 F3000 ;Move Z Axis up
G1 E0.0000 F1800
G90
G21
M83 ; use relative distances for extrusion
;filament start gcode
G1 E-5 F3000
G1 Z.2 F3600
M106 S0
;LAYER_CHANGE
;:0.2
;HEIGHT:0.2
;BEFORE_LAYER_CHANGE
;0.2
G92 E0

;_SET_FAN_SPEED_CHANGING_LAYER
M204 S500
M205 X8 Y8
G1 X110.658 Y104.36 Z.6 F3600
G1 Z.2
G1 E5 F2400
;TYPE:Skirt
;WIDTH:0.5
G1 F3000
G1 X111.288 Y103.693 E.03488
G1 X112.749 Y102.551 E.07047
G1 X113.721 Y101.966 E.04314
G1 X115.604 Y101.289 E.07604
G1 X116.598 Y101.12 E.03831
G1 X117.715 Y101.085 E.04249
G1 X119.204 Y101.283 E.05708
G1 X120.567 Y101.721 E.0544
G1 X121.21 Y102.005 E.02672
G1 X122.865 Y103.01 E.07361
G1 X123.934 Y103.9 E.05284
G1 X125.009 Y105.184 E.06367
G1 X125.523 Y106.04 E.03794
G1 X126.054 Y107.228 E.04945
G1 X126.458 Y108.789 E.06129
G1 X126.535 Y110.485 E.0645
G1 X126.225 Y112.263 E.06862
G1 X125.488 Y113.957 E.07021
G1 X124.415 Y115.404 E.06845
G1 X122.907 Y116.676 E.075
G1 X121.689 Y117.312 E.0522
G1 X120.03 Y117.798 E.06571
G1 X118.622 Y117.942 E.05381
G1 X116.378 Y117.942 E.08526
G1 X115.264 Y117.852 E.04249
G1 X113.762 Y117.483 E.05879
G1 X112.54 Y116.938 E.05084
G1 X111.068 Y115.893 E.06862
G1 X110.114 Y114.859 E.05346
G1 X109.238 Y113.427 E.06381
G1 X109.01 Y112.91 E.02149
G1 X108.509 Y111.001 E.075
G1 X108.474 Y109.355 E.06258
G1 X108.764 Y107.788 E.06056
G1 X109.43 Y106.097 E.06906
G1 X110.349 Y104.689 E.06391
G1 X110.631 Y104.39 E.01563
G1 X110.963 Y104.702 F3600
G1 F3000
G1 X111.587 Y104.038 E.03465
G1 X113.016 Y102.922 E.06889
M73 P1 R25
G1 X113.942 Y102.366 E.04106
G1 X115.717 Y101.732 E.07163
G1 X116.649 Y101.575 E.03592
G1 X117.713 Y101.542 E.04046
G1 X119.572 Y101.854 E.07163
G1 X121.024 Y102.423 E.05931
G1 X121.863 Y102.886 E.0364
G1 X123.244 Y103.889 E.06486
G1 X124.391 Y105.103 E.06348
G1 X124.984 Y106.005 E.04105
G1 X125.375 Y106.771 E.03268
G1 X125.758 Y107.779 E.04099
G1 X126.004 Y108.847 E.04164
G1 X126.078 Y110.472 E.06182
G1 X125.894 Y111.732 E.04842
G1 X125.3 Y113.349 E.06547
G1 X124.437 Y114.677 E.06017
G1 X124.069 Y115.106 E.02149
G1 X122.649 Y116.298 E.07045
G1 X121.526 Y116.885 E.04817
G1 X119.962 Y117.346 E.06196
G1 X118.622 Y117.485 E.05123
G1 X116.378 Y117.485 E.08526
G1 X115.317 Y117.398 E.04046
G1 X113.905 Y117.049 E.0553
G1 X112.748 Y116.531 E.04816
G1 X111.365 Y115.545 E.06456
G1 X110.484 Y114.591 E.04933
G1 X109.656 Y113.242 E.06017
G1 X109.428 Y112.725 E.02149
G1 X108.961 Y110.931 E.07045
G1 X108.93 Y109.382 E.05887
G1 X109.207 Y107.901 E.0573
G1 X109.831 Y106.316 E.06474
G1 X110.695 Y104.987 E.06022
G1 X110.935 Y104.731 E.01335
; OBJECT_ID: 126
; printing object 螺旋.stl id:9749000 copy 0
G1 E-4.5
;WIPE_START
G1 X111.587 Y104.038 E-.22604
G1 X112.414 Y103.393 E-.24896
;WIPE_END
G1 E-.025
G1 X115.231 Y108.433 Z.6 F3600
G1 Z.2
G1 E5 F2400
;TYPE:Brim
G1 F900
G1 X115.329 Y108.319 E.00574
G1 X115.704 Y107.993 E.01886
G1 X116.329 Y107.543 E.02927
G1 X116.665 Y107.357 E.01459
G1 X117.107 Y107.245 E.01736
G1 X117.272 Y107.226 E.0063
G1 X117.656 Y107.228 E.0146
G1 X118.096 Y107.344 E.01727
G1 X118.703 Y107.614 E.02527
G1 X119.42 Y108.096 E.03282
G1 X119.771 Y108.417 E.01807
G1 X119.995 Y108.732 E.0147
G1 X120.123 Y108.968 E.0102
G1 X120.241 Y109.215 E.01041
G1 X120.366 Y109.584 E.01483
G1 X120.407 Y109.902 E.01217
G1 X120.396 Y110.284 E.01453
G1 X120.299 Y110.644 E.01416
G1 X120.111 Y110.987 E.01488
G1 X119.778 Y111.375 E.01942
G1 X119.472 Y111.583 E.01406
G1 X119.098 Y111.726 E.01524
G1 X118.605 Y111.8 E.01895
G1 X116.392 Y111.8 E.0841
G1 X116.004 Y111.754 E.01484
G1 X115.7 Y111.654 E.01217
G1 X115.359 Y111.48 E.01453
G1 X115.076 Y111.238 E.01416
G1 X114.847 Y110.921 E.01488
G1 X114.64 Y110.454 E.01942
G1 X114.583 Y110.086 E.01414
G1 X114.604 Y109.749 E.01283
G1 X114.714 Y109.316 E.01699
G1 X114.832 Y109.022 E.01203
G1 X115.017 Y108.681 E.01477
G1 X115.204 Y108.464 E.01089
G1 X115.554 Y108.76 F3600
G1 F900
G1 X115.647 Y108.65 E.0055
G1 X115.983 Y108.356 E.01695
G1 X116.581 Y107.926 E.02798
G1 X116.851 Y107.782 E.01166
G1 X117.181 Y107.698 E.01291
G1 X117.613 Y107.689 E.01642
G1 X117.953 Y107.781 E.01342
G1 X118.492 Y108.022 E.02241
G1 X119.144 Y108.463 E.02993
G1 X119.415 Y108.711 E.01399
G1 X119.601 Y108.968 E.01203
G1 X119.82 Y109.395 E.01825
G1 X119.914 Y109.674 E.0112
G1 X119.947 Y109.914 E.00918
G1 X119.936 Y110.233 E.01214
G1 X119.864 Y110.487 E.01003
G1 X119.74 Y110.713 E.0098
G1 X119.483 Y111.017 E.01515
G1 X119.272 Y111.166 E.00979
G1 X118.966 Y111.284 E.01247
G1 X118.581 Y111.341 E.01481
G1 X116.411 Y111.342 E.08248
G1 X116.09 Y111.301 E.01228
G1 X115.867 Y111.226 E.00894
G1 X115.63 Y111.105 E.01013
G1 X115.405 Y110.913 E.01124
G1 X115.239 Y110.679 E.01088
G1 X115.09 Y110.341 E.01406
G1 X115.045 Y110.079 E.01008
G1 X115.06 Y109.807 E.01035
G1 X115.147 Y109.467 E.01335
G1 X115.25 Y109.21 E.01051
G1 X115.388 Y108.955 E.01104
G1 X115.528 Y108.79 E.00819
G1 X115.866 Y109.079 F3600
G1 F900
G1 X115.89 Y109.051 E.00142
G1 X116.256 Y108.723 E.01866
G1 X116.865 Y108.284 E.02853
G1 X116.978 Y108.223 E.00487
G1 X117.206 Y108.153 E.00909
G1 X117.375 Y108.134 E.00646
G1 X117.614 Y108.151 E.00909
G1 X117.738 Y108.185 E.00488
G1 X118.154 Y108.36 E.01717
G1 X118.94 Y108.883 E.03588
G1 X119.138 Y109.092 E.01094
G1 X119.409 Y109.596 E.02173
G1 X119.467 Y109.761 E.00667
G1 X119.496 Y109.983 E.00849
G1 X119.48 Y110.165 E.00694
G1 X119.444 Y110.295 E.00512
G1 X119.365 Y110.462 E.00706
G1 X119.177 Y110.677 E.01084
G1 X119.077 Y110.748 E.00464
G1 X118.901 Y110.83 E.0074
G1 X118.609 Y110.886 E.0113
G1 X116.388 Y110.886 E.08438
G1 X116.051 Y110.808 E.01314
G1 X115.859 Y110.703 E.00833
G1 X115.759 Y110.616 E.00503
G1 X115.646 Y110.477 E.00682
G1 X115.532 Y110.219 E.01072
G1 X115.502 Y109.94 E.01067
G1 X115.543 Y109.726 E.00828
G1 X115.678 Y109.369 E.01452
G1 X115.801 Y109.155 E.00938
G1 X115.84 Y109.11 E.00227
G1 X116.188 Y109.398 F3600
G1 F900
G1 X116.566 Y109.059 E.01928
G1 X117.138 Y108.65 E.02671
G1 X117.245 Y108.609 E.00438
G1 X117.439 Y108.587 E.00741
G1 X117.553 Y108.603 E.00438
G1 X117.99 Y108.787 E.018
G1 X118.693 Y109.268 E.03241
G1 X118.789 Y109.386 E.00577
G1 X119.006 Y109.81 E.0181
G1 X119.03 Y109.894 E.00331
G1 X119.042 Y110.032 E.00529
G1 X119 Y110.186 E.00605
G1 X118.919 Y110.299 E.00529
G1 X118.8 Y110.384 E.00556
G1 X118.622 Y110.429 E.00699
G1 X116.378 Y110.429 E.08526
G1 X116.168 Y110.366 E.00833
G1 X116.048 Y110.262 E.00605
G1 X115.981 Y110.14 E.00529
G1 X115.954 Y110.003 E.00531
G1 X115.966 Y109.899 E.00399
G1 X116.109 Y109.52 E.0154
G1 X116.166 Y109.431 E.00402
G1 E-4.5 F3000
;WIPE_START
G1 F900
G1 X116.566 Y109.059 E-.12969
G1 X117.138 Y108.65 E-.1669
G1 X117.245 Y108.609 E-.02735
G1 X117.439 Y108.587 E-.04632
G1 X117.553 Y108.603 E-.02735
G1 X117.853 Y108.729 E-.0774
;WIPE_END
G1 E-.025 F3000
G1 X118.219 Y109.754 Z.6 F3600
G1 Z.2
G1 E5 F2400
;TYPE:Outer wall
;WIDTH:0.489807
G1 F900
G1 X116.792 Y109.755 E.05303
G1 X116.968 Y109.6 E.00874
G1 X117.419 Y109.277 E.02057
G1 X117.722 Y109.409 E.01229
G1 X118.186 Y109.731 E.02099
; stop printing object 螺旋.stl id:9749000 copy 0
G1 E-4.5 F3000
;WIPE_START
G1 F900
G1 X116.792 Y109.755 E-.33121
G1 X116.968 Y109.6 E-.05585
G1 X117.269 Y109.384 E-.08794
;WIPE_END
G1 E-.025 F3000
;TIME_ELAPSED:21.708544

M106 S255
;LAYER_CHANGE
;:0.4
;HEIGHT:0.2
;BEFORE_LAYER_CHANGE
;0.4
G92 E0

;_SET_FAN_SPEED_CHANGING_LAYER
M205 X10 Y10
M205 X8 Y8
G1 X112.523 Y103.307 Z.6 F7200
G1 Z.4
G1 E5 F2400
M205 X10 Y10
;TYPE:Skirt
;WIDTH:0.5
G1 F600
G1 X113.016 Y102.922 E.02377
G1 X113.942 Y102.366 E.04106
G1 X115.717 Y101.732 E.07163
G1 X116.649 Y101.575 E.03592
G1 X117.713 Y101.542 E.04046
G1 X119.572 Y101.854 E.07163
G1 X121.024 Y102.423 E.05931
G1 X121.863 Y102.886 E.0364
G1 X123.244 Y103.889 E.06486
G1 X124.391 Y105.103 E.06348
G1 X124.984 Y106.005 E.04105
G1 X125.375 Y106.771 E.03268
G1 X125.758 Y107.779 E.04099
G1 X126.004 Y108.847 E.04164
G1 X126.078 Y110.472 E.06182
G1 X125.894 Y111.732 E.04842
G1 X125.3 Y113.349 E.06547
G1 X124.437 Y114.677 E.06017
G1 X124.069 Y115.106 E.02149
G1 X122.649 Y116.298 E.07045
G1 X121.526 Y116.885 E.04817
G1 X119.962 Y117.346 E.06196
G1 X118.622 Y117.485 E.05123
G1 X116.378 Y117.485 E.08526
M73 P1 R24
G1 X115.317 Y117.398 E.04046
G1 X113.905 Y117.049 E.0553
G1 X112.748 Y116.531 E.04816
G1 X111.365 Y115.545 E.06456
G1 X110.484 Y114.591 E.04933
G1 X109.656 Y113.242 E.06017
G1 X109.428 Y112.725 E.02149
G1 X108.961 Y110.931 E.07045
G1 X108.93 Y109.382 E.05887
G1 X109.207 Y107.901 E.0573
G1 X109.831 Y106.316 E.06474
G1 X110.695 Y104.987 E.06022
G1 X111.587 Y104.038 E.04952
G1 X112.491 Y103.332 E.0436
; OBJECT_ID: 126
; printing object 螺旋.stl id:9749000 copy 0
G1 E-4.5 F3000
;WIPE_START
G1 X113.016 Y102.922 E-.15807
G1 X113.942 Y102.366 E-.25656
G1 X114.181 Y102.28 E-.06037
;WIPE_END
G1 E-.025
M205 X8 Y8
G1 X117.81 Y108.995 Z.8 F7200
G1 X118.219 Y109.754 Z.8
G1 Z.4
G1 E5 F2400
M205 X10 Y10
;TYPE:Outer wall
;WIDTH:0.489807
G1 F600
G1 X116.792 Y109.755 E.05303
G1 X116.968 Y109.6 E.00874
G1 X117.419 Y109.277 E.02057
G1 X117.722 Y109.409 E.01229
G1 X118.186 Y109.731 E.02099
; stop printing object 螺旋.stl id:9749000 copy 0
G1 E-4.5 F3000
;WIPE_START
G1 X116.792 Y109.755 E-.33121
G1 X116.968 Y109.6 E-.05585
G1 X117.269 Y109.384 E-.08794
;WIPE_END
G1 E-.025
;TIME_ELAPSED:28.829329

;LAYER_CHANGE
;:0.6
;HEIGHT:0.2
;BEFORE_LAYER_CHANGE
;0.6
G92 E0

;_SET_FAN_SPEED_CHANGING_LAYER
; OBJECT_ID: 126
; printing object 螺旋.stl id:9749000 copy 0
M205 X8 Y8
G1 X117.978 Y109.415 Z.8 F7200
G1 Z.6
G1 E5 F2400
M205 X10 Y10
;TYPE:Inner wall
;WIDTH:0.41552
G1 F600
G1 X116.965 Y109.415 E.03138
G1 X117.422 Y109.013 E.01886
G1 X117.424 Y109.012 E.00007
G1 X117.454 Y109.026 E.00103
M106 S255
G1 X117.859 Y109.222 E.01394
G1 X117.957 Y109.381 E.00579
M205 X8 Y8
G1 X118.588 Y109.79 F7200
M205 X10 Y10
;TYPE:Outer wall
;WIDTH:0.419999
G1 F600
G1 X117.688 Y109.79 E.02822
G1 X117.297 Y109.79 E.01226
G1 X116.39 Y109.79 E.02844
G1 X116.559 Y109.367 E.01428
M204 S250
;TYPE:Overhang wall
G1 X116.618 Y109.222 E.00491
G1 X117.352 Y108.576 E.03066
G1 X117.889 Y108.801 E.01826
G1 X118.165 Y108.978 E.01028
G1 X118.325 Y109.284 E.01083
M204 S500
;TYPE:Outer wall
G1 X118.57 Y109.755 E.01665
; stop printing object 螺旋.stl id:9749000 copy 0
G1 E-4.5 F3000
;WIPE_START
G1 F1200
G1 X116.57 Y109.787 E-.475
;WIPE_END
G1 E-.025 F3000
;TIME_ELAPSED:30.267761

;LAYER_CHANGE
;:0.8
;HEIGHT:0.2
;BEFORE_LAYER_CHANGE
;0.8
G92 E0

;_SET_FAN_SPEED_CHANGING_LAYER
; OBJECT_ID: 126
; printing object 螺旋.stl id:9749000 copy 0
M205 X8 Y8
G1 X118.267 Y109.398 Z1 F7200
G1 Z.8
G1 E5 F2400
M205 X10 Y10
;TYPE:Inner wall
;WIDTH:0.449999
M106 S255
G1 F600
M73 P2 R24
G1 X116.667 Y109.398 E.05416
G1 X116.89 Y108.836 E.02047
G1 X117.306 Y108.363 E.02132
G1 X117.822 Y108.574 E.01887
G1 X118.248 Y109.363 E.03035
M205 X8 Y8
G1 X118.888 Y109.79 F7200
M205 X10 Y10
;TYPE:Outer wall
;WIDTH:0.419999
G1 F600
G1 X117.987 Y109.79 E.02825
G1 X116.998 Y109.79 E.03101
G1 X116.089 Y109.79 E.0285
G1 X116.486 Y108.792 E.03368
M204 S250
;TYPE:Overhang wall
G1 X116.551 Y108.628 E.00553
G1 X117.17 Y107.924 E.02939
G1 X117.342 Y107.954 E.00547
G1 X118.098 Y108.264 E.02562
G1 X118.249 Y108.538 E.00981
M204 S500
;TYPE:Outer wall
G1 X118.559 Y109.1 E.02012
G1 X118.87 Y109.754 E.02271
G1 E-4.5 F3000
;WIPE_START
G1 F1140
G1 X116.871 Y109.78 E-.475
;WIPE_END
G1 E-.025 F3000
M205 X8 Y8
G1 X117.472 Y108.869 Z1.2 F7200
G1 Z.8
G1 E5 F2400
M205 X10 Y10
;TYPE:Internal solid infill
;WIDTH:0.578586
G1 F600
M106 S255
G1 X117.405 Y108.869 E.00298
G1 X117.371 Y108.927 E.00298
G1 X117.405 Y108.985 E.00298
G1 X117.472 Y108.985 E.00298
G1 X117.485 Y108.961 E.0012
; stop printing object 螺旋.stl id:9749000 copy 0
;TIME_ELAPSED:32.512791

;LAYER_CHANGE
;:1
;HEIGHT:0.2
;BEFORE_LAYER_CHANGE
;1
G92 E0

G1 E-4.5 F3000
;WIPE_START
G1 F3600
G1 X117.472 Y108.985 E-.04344
G1 X117.405 Y108.985 E-.10789
G1 X117.371 Y108.927 E-.10789
G1 X117.405 Y108.869 E-.10789
G1 X117.472 Y108.869 E-.10789
;WIPE_END
G1 E-.025 F3000
;_SET_FAN_SPEED_CHANGING_LAYER
; OBJECT_ID: 126
; printing object 螺旋.stl id:9749000 copy 0
M205 X8 Y8
G17
G3 Z1.2 I-.53 J1.096 P1  F7200
G1 X118.566 Y109.398 Z1.2
G1 Z1
G1 E5 F2400
M205 X10 Y10
;TYPE:Inner wall
;WIDTH:0.449999
G1 F600
G1 X117.998 Y109.398 E.01923
G1 X116.95 Y109.398 E.03547
G1 X116.404 Y109.398 E.01848
G1 X116.667 Y108.71 E.02493
G1 X116.748 Y108.199 E.01751
G1 X117.097 Y107.714 E.02023
G1 X117.293 Y107.748 E.00673
G1 X117.618 Y107.871 E.01176
G1 X118.051 Y108.389 E.02285
G1 X118.315 Y108.869 E.01854
G1 X118.549 Y109.362 E.01847
M205 X8 Y8
G1 X119.105 Y109.79 F7200
M205 X10 Y10
;TYPE:Outer wall
;WIDTH:0.419999
G1 F600
G1 X118.279 Y109.79 E.0259
G1 X116.704 Y109.79 E.04938
G1 X115.864 Y109.79 E.02634
G1 X115.894 Y109.613 E.00563
G1 X116.28 Y108.649 E.03256
G1 X116.345 Y108.236 E.01311
M204 S250
;TYPE:Overhang wall
G1 X116.375 Y108.045 E.00606
G1 X116.947 Y107.29 E.0297
G1 X117.36 Y107.362 E.01314
G1 X117.855 Y107.543 E.01653
G1 X118.073 Y107.803 E.01064
M204 S500
;TYPE:Outer wall
G1 X118.425 Y108.256 E.01799
G1 X118.673 Y108.71 E.01622
G1 X118.999 Y109.406 E.0241
G1 X119.084 Y109.713 E.00999
M106 S255
G1 X119.094 Y109.751 E.00123
G1 E-4.5 F3000
;WIPE_START
G1 F1560
G1 X117.094 Y109.775 E-.475
;WIPE_END
G1 E-.025 F3000
M205 X8 Y8
G1 X117.063 Y108.943 Z1.4 F7200
G1 Z1
G1 E5 F2400
M205 X10 Y10
;TYPE:Internal solid infill
;WIDTH:0.545231
G1 F600
G1 X117.829 Y108.943 E.03198
G1 X117.682 Y108.663 E.01322
G1 X117.354 Y108.263 E.02159
G1 X117.287 Y108.229 E.00314
G1 X117.175 Y108.41 E.00886
G1 X117.071 Y108.904 E.0211
; stop printing object 螺旋.stl id:9749000 copy 0
;TIME_ELAPSED:35.850277

;LAYER_CHANGE
;:1.2
;HEIGHT:0.2
;BEFORE_LAYER_CHANGE
;1.2
G92 E0

G1 E-4.5 F3000
;WIPE_START
G1 F3600
G1 X117.175 Y108.41 E-.11999
G1 X117.287 Y108.229 E-.05036
G1 X117.354 Y108.263 E-.01786
G1 X117.682 Y108.663 E-.12279
G1 X117.829 Y108.943 E-.07519
G1 X117.455 Y108.943 E-.08881
;WIPE_END
G1 E-.025 F3000
;_SET_FAN_SPEED_CHANGING_LAYER
; OBJECT_ID: 126
; printing object 螺旋.stl id:9749000 copy 0
M205 X8 Y8
G17
G3 Z1.4 I-.41 J1.146 P1  F7200
G1 X118.724 Y109.398 Z1.4
G1 Z1.2
G1 E5 F2400
M205 X10 Y10
;TYPE:Inner wall
;WIDTH:0.449999
G1 F600
G1 X118.284 Y109.398 E.01489
G1 X116.686 Y109.398 E.05409
G1 X116.185 Y109.398 E.01696
G1 X116.376 Y108.777 E.02199
G1 X116.554 Y107.646 E.03875
G1 X116.919 Y107.094 E.0224
G1 X117.386 Y107.17 E.01602
G1 X117.825 Y107.663 E.02234
G1 X118.289 Y108.252 E.02538
G1 X118.546 Y108.75 E.01897
G1 X118.713 Y109.359 E.02137
M205 X8 Y8
G1 X119.238 Y109.79 F7200
M205 X10 Y10
;TYPE:Outer wall
;WIDTH:0.419999
G1 F600
G1 X118.482 Y109.79 E.0237
G1 X116.492 Y109.79 E.06239
G1 X115.73 Y109.79 E.02389
G1 X115.809 Y109.264 E.01668
