; HEADER_BLOCK_START
; generated by Creality_Print V7.0.0.4127 on 2026-01-28 at 22:35:54
; total layer number: 240
; filament_density: 1.24
; filament_diameter: 1.75
; max_z_height: 48.00
; creality_uuid: 0862b006-e03e-40db-887e-12afe82ee7ec
; HEADER_BLOCK_END

; MINX = 80.00
; MINY = 94.50
; MINZ = 0.00
; MAXX = 140.00
; MAXY = 125.50
; MAXZ = 48.00

; multicolor_method = 0 
; THUMBNAIL_BLOCK_START

;
; THUMBNAIL_BLOCK_END

; THUMBNAIL_BLOCK_START

;
; THUMBNAIL_BLOCK_END

; external perimeters extrusion width = 0.42mm
; perimeters extrusion width = 0.45mm
; infill extrusion width = 0.45mm
; solid infill extrusion width = 0.45mm
; top infill extrusion width = 0.42mm
; first layer extrusion width = 0.50mm

; EXECUTABLE_BLOCK_START
M73 P0 R87
M201 X500 Y500 Z500 E5000
M203 X500 Y500 Z10 E50
M204 P500 R500 T500
M205 X10.00 Y10.00 Z0.40 E5.00 ; sets the jerk limits, mm/sec
; max_print_temp = 60,220
;TYPE:Custom
M220 S100 ;Reset Feedrate
M221 S100 ;Reset Flowrate

M140 S60 ;Set final bed temp  
G28 ;Home
G92 E0 ;Reset Extruder
G1 Z2.0 F3000 ;Move Z Axis up
M104 S220 ;Set final nozzle temp  
G1 X0.0000 Y20.0000 Z0.28 F5000.0 ;Move to start position
M190 S60 ;Wait for bed temp to stabilize  
M109 S220 ;Wait for nozzle temp to stabilize  
G1 X10.1000 Y145.0007 Z0.28 F1500.0 E15 ;Draw the first line
G1 X10.1004 Y145.0121 Z0.28 F5000.0 ;Move to side a little
G1 X10.3625 Y20.0006 Z0.28 F1500.0 E30 ;Draw the second line
G92 E0  ;Reset Extruder
G1 E-1.0000 F1800 ;Retract a bit
G1 Z2.0 F3000 ;Move Z Axis up
G1 E0.0000 F1800
G90
G21
M83 ; use relative distances for extrusion
;filament start gcode
G1 E-5 F3000
G1 Z.2 F3600
M106 S0
;LAYER_CHANGE
;:0.2
;HEIGHT:0.2
;BEFORE_LAYER_CHANGE
;0.2
G92 E0
;TIME_ELAPSED:58.078922
;_SET_FAN_SPEED_CHANGING_LAYER
M204 S500
M205 X8 Y8
G1 X10.4003 Y19.9648 Z.6 F3600
G1 Z.2
G1 E5 F2400
;TYPE:Skirt
;WIDTH:0.5
G1 F3000
G1 X10.4017 Y19.8561 E.04014
G1 X10.4001 Y19.9322 E.04135
G1 X10.3994 Y20.0361 E.03931
G1 X10.3998 Y20.0465 E.04027
G1 X10.4000 Y98.9004 E.90543
G1 X81.1078 Y98.9631 E.05759
G1 X81.1619 Y99.1590 E.04893
G1 X81.3054 Y99.0237 E.06576
G1 X81.1529 Y98.3376 E.09783
G1 X81.9225 Y97.9085 E.09894
G1 X82.9149 Y97.4426 E.10282
G1 X83.9813 Y97.4191 E.10768
G1 X84.9869 Y95.8806 E.10345
G1 X108.7819 Y95.8395 E.10628
G1 X110.2969 Y95.8911 E.10514
G1 X111.5831 Y96.0895 E.05526
G1 X113.3024 Y96.6418 E.02857
G1 X115.8168 Y97.5057 E.03911
G1 X118.2736 Y98.7178 E.05603
G1 X120.6924 Y100.3082 E.02976
G1 X123.0380 Y102.1195 E.03854
G1 X125.0709 Y104.2374 E.07736
G1 X126.8984 Y106.5541 E.08325
G1 X128.4120 Y107.8922 E.09112
G1 X128.9796 Y108.6193 E.0898
G1 X129.1675 Y109.6477 E.06035
G1 X129.2908 Y111.1234 E.07437
G1 X129.2076 Y111.8917 E.07082
G1 X129.0464 Y112.8558 E.05941
G1 X128.7125 Y114.6284 E.07113
G1 X127.7052 Y116.3942 E.06131
G1 X126.4059 Y118.1630 E.06798
G1 X124.7854 Y119.7178 E.0739
G1 X123.0051 Y120.6468 E.95852
G1 X121.7169 Y121.6488 E.06056
G1 X120.0362 Y122.4592 E.04595
G1 X118.3570 Y123.0221 E.05841
G1 X116.8977 Y123.5488 E.06033
G1 X115.1019 Y123.8774 E.04295
G1 X113.5217 Y124.0964 E.04006
G1 X111.7460 Y124.1636 E.03812
G1 X109.8025 Y122.5867 E.0383
G1 X84.6300 Y122.2088 E.43302
G1 X83.0845 Y121.7032 E.06248
G1 X81.9849 Y120.8126 E.05742
G1 X80.6829 Y119.6410 E.0628
G1 X79.5914 Y118.6783 E.05861
G1 X78.9820 Y117.7078 F3600
G1 F3000
G1 X78.5487 Y116.7352 E.03774
G1 X78.2641 Y115.7350 E.03886
G1 X78.1028 Y104.3319 E.03699
G1 X78.1100 Y102.7107 E.03789
G1 X78.4087 Y101.3045 E.90491
G1 X78.9919 Y99.9312 E.05644
G1 X79.9304 Y98.8618 E.04754
G1 X81.0575 Y99.1169 E.06473
G1 X81.3699 Y98.7679 E.09564
G1 X81.4203 Y99.3124 E.09645
G1 X82.3492 Y97.9893 E.0471
G1 X83.0187 Y98.0881 E.06419
G1 X84.2073 Y97.6771 E.10528
G1 X84.9862 Y96.3172 E.09682
G1 X108.8463 Y96.2807 E.10558
G1 X110.3327 Y96.3318 E.09818
G1 X111.5848 Y96.5307 E.04873
G1 X113.2794 Y97.0727 E.06321
G1 X115.7394 Y97.9175 E.05257
G1 X118.1346 Y98.4349 E.02787
G1 X119.2639 Y99.2582 E.04037
G1 X120.7467 Y100.8480 E.07573
G1 X123.0202 Y102.5672 E.09446
G1 X124.9039 Y104.6911 E.08575
G1 X126.6993 Y106.8695 E.08666
G1 X128.0935 Y108.0560 E.06356
G1 X128.5861 Y109.7047 E.06862
G1 X128.8664 Y111.0909 E.06175
G1 X128.7916 Y111.8186 E.0705
G1 X128.6366 Y112.8299 E.05817
G1 X128.2689 Y114.5613 E.07187
G1 X127.2576 Y116.5466 E.06895
G1 X125.7454 Y118.1789 E.0501
G1 X124.1792 Y119.6410 E.95582
G1 X122.4239 Y120.5841 E.05697
G1 X121.0383 Y121.4712 E.04346
G1 X119.4611 Y122.1526 E.05459
G1 X117.9825 Y122.7843 E.05672
G1 X116.2351 Y123.1876 E.04034
G1 X114.7551 Y123.5321 E.03768
G1 X112.8918 Y123.7039 E.03591
G1 X111.0835 Y123.7273 E.03609
G1 X109.7625 Y122.1515 E.42979
G1 X84.6586 Y121.7948 E.0544
G1 X83.2029 Y121.3128 E.05844
G1 X82.1588 Y120.4718 E.05935
G1 X80.9822 Y119.3685 E.05466
; OBJECT_ID: 74
; printing object 3DBenchy.stl id:0 copy 0
G1 E-4.5
;WIPE_START
G1 X79.9610 Y118.4664 E-.24517
G1 X79.3852 Y117.5525 E-.22983
;WIPE_END
G1 E-.025
G1 X78.9770 Y116.6355 Z.6 F3600
G1 X78.7093 Y115.6930 Z.6
G1 Z.2
G1 E5 F2400
;TYPE:Inner wall
;WIDTH:0.499999
G1 F900
G1 X78.5564 Y104.3738 E.04727
G1 X78.5649 Y102.9596 E.02437
G1 X78.8115 Y101.5237 E.01436
G1 X79.3941 Y100.2240 E.01022
G1 X80.2783 Y99.2268 E.01554
G1 X81.3311 Y99.1813 E.01787
G1 X81.3940 Y98.5992 E.01389
G1 X82.3160 Y98.4759 E.01519
G1 X82.9776 Y98.2175 E.01519
G1 X83.2812 Y100.1977 E.01579
G1 X90.5063 Y107.6119 E.01689
G1 X119.1815 Y107.6417 E.01472
G1 X119.2579 Y107.7184 E.0183
G1 X119.4817 Y107.6828 E.01827
G1 X119.2566 Y107.6836 E.0174
G1 X117.9641 Y107.7876 E.01618
G1 X117.3047 Y107.9548 E.01302
G1 X116.9423 Y108.1699 E.01048
G1 X116.7218 Y107.9577 E.00948
G1 X116.4417 Y107.7101 E.01723
G1 X116.0440 Y107.6714 E.01811
G1 X115.6589 Y107.7568 E.01606
G1 X115.2495 Y108.0823 E.01853
G1 X114.9549 Y108.4465 E.01787
G1 X114.7174 Y108.8457 E.00795
G1 X114.5218 Y108.5273 E.0226
G1 X114.3923 Y108.0178 E.01325
G1 X114.1337 Y107.7515 E.01691
G1 X113.7305 Y107.6033 E.00854
G1 X113.2712 Y107.6588 E.01218
G1 X112.8416 Y107.8087 E.01826
G1 X112.5188 Y107.9627 E.01465
G1 X112.2779 Y108.1462 E.01955
G1 X112.1181 Y107.8993 E.01769
G1 X111.7964 Y107.6479 E.02157
G1 X111.3633 Y107.6784 E.02896
G1 X110.9333 Y107.8814 E.00827
G1 X110.4838 Y108.2363 E.02059
G1 X110.1531 Y108.1527 E.01175
G1 X110.0162 Y107.7264 E.01122
G1 X109.5443 Y107.6446 E.02222
G1 X109.2068 Y107.6196 E.01046
G1 X108.7420 Y107.7331 E.01744
G1 X108.5324 Y107.9214 E.01143
G1 X108.2566 Y108.3175 E.01271
G1 X107.9255 Y108.6637 E.01941
G1 X107.7859 Y109.1657 E.02138
G1 X107.7958 Y109.6278 E.02081
G1 X107.9603 Y110.1498 E.0191
G1 X108.2369 Y110.8028 E.02374
G1 X108.6340 Y110.9739 E.0228
G1 X108.5508 Y111.4434 E.02016
G1 X108.2595 Y111.2527 E.02165
G1 X108.1225 Y111.0283 E.02051
G1 X107.8998 Y110.6632 E.0236
G1 X107.3974 Y110.5205 E.02155
G1 X107.1274 Y110.5592 E.04697
G1 X106.6597 Y110.6176 E.01408
G1 X106.3680 Y110.3652 E.02084
G1 X106.3755 Y109.7636 E.01699
G1 X106.4536 Y109.1849 E.01352
;WIDTH:0.51298
G1 X106.4130 Y108.6218 E.01958
G1 X106.3243 Y108.1413 E.02011
;WIDTH:0.499999
G1 X106.1766 Y107.6124 E.01678
G1 X105.8999 Y107.1312 E.01826
G1 X105.5376 Y106.7491 E.02597
G1 X105.1356 Y106.4496 E.02316
G1 X104.6428 Y106.2914 E.02183
G1 X104.1345 Y106.2091 E.02188
G1 X103.5201 Y106.1768 E.01734
G1 X102.9469 Y106.1605 E.0153
G1 X101.7035 Y106.1958 E.0198
G1 X101.3309 Y106.3847 E.00375
G1 X100.8101 Y106.6800 E.01188
G1 X100.4686 Y106.9995 E.01098
G1 X100.2858 Y107.5112 E.0242
G1 X100.1864 Y107.1286 E.15285
G1 X99.9717 Y106.7104 E.01544
G1 X99.6857 Y106.3726 E.01694
G1 X99.3086 Y106.0770 E.01181
G1 X98.6593 Y105.9966 E.02106
G1 X98.0610 Y106.0325 E.02614
G1 X97.4928 Y106.1210 E.01841
G1 X96.9204 Y106.2439 E.03361
G1 X96.4798 Y106.4442 E.02356
G1 X96.1318 Y106.7887 E.0133
G1 X95.7245 Y106.7442 E.02183
G1 X95.6739 Y106.6566 E.02259
G1 X95.4518 Y106.1613 E.02419
G1 X95.2467 Y106.0626 E.0772
G1 X94.5949 Y106.1657 E.01969
G1 X90.5700 Y106.3425 E.01248
G1 X90.1936 Y106.6676 E.01211
G1 X89.8622 Y106.9185 E.01291
G1 X89.6866 Y106.5834 E.88857
G1 X89.3024 Y106.2071 E.04107
G1 X88.7005 Y106.0587 E.03029
G1 X88.2246 Y106.0011 E.0296
G1 X87.3275 Y106.1043 E.03
G1 X86.7194 Y106.2426 E.04061
G1 X86.3921 Y106.4893 E.03004
G1 X85.8645 Y106.8212 E.04101
G1 X85.3764 Y107.2800 E.03373
G1 X84.9400 Y105.2775 E.03756
G1 X84.9484 Y104.7431 E.03067
G1 X85.0462 Y104.4308 E.0409
G1 X85.2393 Y104.2223 E.0377
G1 X85.5194 Y104.1308 E.03357
G1 X85.8743 Y102.7638 E.02479
;WIDTH:0.531775
G1 X109.2395 Y102.7697 E.01114
;WIDTH:0.56355
G1 X110.3326 Y102.8080 E.01186
G1 X111.1349 Y102.8728 E.00715
;WIDTH:0.536352
G1 X111.9131 Y102.9975 E.00678
;WIDTH:0.509154
G1 X112.6982 Y103.2488 E.02052
;WIDTH:0.499999
G1 X113.7436 Y103.4796 E.03235
G1 E-4.5 F3000
;WIPE_START
G1 F900
G1 X114.5008 Y103.8498 E-.30489
G1 X115.5080 Y104.2106 E-.15231
G1 X116.3150 Y104.6817 E-.0178
;WIPE_END
G1 E-.025 F3000
G1 X117.1872 Y105.1147 Z.6 F3600
G1 Z.2
G1 E5 F2400
G1 F900
G1 X117.8724 Y105.7481 E.04766
G1 X118.7407 Y106.3863 E.0245
G1 X119.4972 Y107.0008 E.02287
G1 X120.1357 Y107.4950 E.01036
;WIDTH:0.542351
G1 X120.5818 Y107.7262 E.01025
;WIDTH:0.584702
G1 X120.7491 Y107.9492 E.01112
G1 X120.9095 Y107.9107 E.00904
;WIDTH:0.541958
G1 X120.7901 Y107.9045 E.02699
;WIDTH:0.499999
G1 X120.6993 Y107.6446 E.03266
G1 X120.0814 Y107.6517 E.00926
G1 X119.1739 Y107.6567 E.00665
G1 X119.1317 Y107.6580 E.03132
G1 X119.0860 Y107.7312 E.04547
G1 X117.9307 Y107.7767 E.02061
G1 X117.2814 Y107.8164 E.0251
G1 X117.1748 Y107.7846 F3600
;TYPE:Outer wall
;WIDTH:0.667324
G1 F900
G1 X117.1944 Y111.3545 E.00591
G1 E-4.5 F3000
;WIPE_START
G1 F900
G1 X120.0120 Y111.3258 E-.475
;WIPE_END
G1 E-.025 F3000
G1 X120.1160 Y111.6398 Z.6 F3600
G1 X120.2539 Y111.4805 Z.6
G1 Z.2
G1 E5 F2400
;TYPE:Inner wall
;WIDTH:0.567086
G1 F900
G1 X120.1413 Y110.3865 E.00573
;WIDTH:0.531887
G1 X120.8264 Y109.7412 E.00535
;WIDTH:0.496688
G1 X121.1601 Y109.1383 E.00496
;WIDTH:0.461488
G1 X121.3319 Y108.8647 E.03019
G1 X121.3599 Y108.6070 E.01286
G1 X121.3243 Y108.3684 E.01618
G1 X121.2650 Y108.4624 E.0063
;WIDTH:0.496688
G1 X121.3622 Y109.0701 E.00691
;WIDTH:0.531887
G1 X121.7839 Y109.8130 E.00744
;WIDTH:0.567086
G1 X122.2503 Y110.0443 E.00624
G1 E-4.5 F3000
;WIPE_START
G1 F900
G1 X122.3063 Y110.2320 E-.02514
G1 X122.2660 Y110.9463 E-.03123
G1 X121.8013 Y111.9302 E-.03123
G1 X121.1177 Y111.6012 E-.206
G1 X120.7385 Y111.3479 E-.08776
G1 X120.1115 Y112.9915 E-.09363
;WIPE_END
G1 E-.025 F3000
G1 X120.6321 Y113.0365 Z.6 F3600
G1 X120.6730 Y113.4753 Z.6
G1 Z.2
G1 E5 F2400
;WIDTH:0.499999
G1 F900
G1 X120.7053 Y113.3313 E.02137
G1 X120.7321 Y113.3182 E.0192
G1 X120.5811 Y113.1916 E.01672
G1 X120.6372 Y113.1525 E.01201
G1 X120.6485 Y111.5420 E.02002
G1 X113.2965 Y108.8747 E.01941
G1 X100.2353 Y108.8650 E.007
G1 X100.1489 Y108.8087 E.01245
G1 X99.9170 Y108.8688 E.01799
G1 X100.1665 Y109.0372 E.02175
G1 X100.3516 Y109.1196 E.01184
G1 X100.3676 Y109.2725 E.10517
G1 X100.3396 Y110.2269 E.02644
G1 X100.3031 Y109.9738 E.01175
G1 X100.1435 Y109.5548 E.01675
G1 X99.8298 Y109.3126 E.01546
G1 X99.9021 Y109.1628 E.01065
G1 X99.9389 Y109.0115 E.01583
G1 X100.1819 Y108.8384 E.01582
G1 X100.2667 Y108.8614 E.01691
G1 X100.2926 Y108.8170 E.01664
G1 X100.3059 Y108.9676 E.01621
G1 X100.3345 Y109.0444 E.02038
G1 X100.2519 Y109.2466 E.13243
G1 X100.3200 Y110.2302 E.02759
G1 X100.3131 Y109.9139 E.01939
G1 X100.1508 Y109.6095 E.01605
G1 X99.8673 Y109.4845 E.01082
G1 X99.8437 Y109.0207 E.01197
G1 X92.2476 Y108.7428 E.01064
G1 X87.5065 Y108.7442 E.01681
G1 X87.4144 Y108.7328 E.02005
G1 X87.1603 Y108.7421 E.01508
G1 X87.4165 Y108.9967 E.01078
G1 X87.9875 Y109.2343 E.01807
;WIDTH:0.481684
G1 X88.4950 Y109.2900 E.00767
;WIDTH:0.465619
G1 X88.9836 Y109.2457 E.00418
;WIDTH:0.499999
G1 X89.2910 Y108.9713 E.01212
G1 X89.7487 Y108.5285 E.01834
G1 X90.0544 Y108.5996 E.01005
G1 X90.1872 Y108.6989 E.01661
G1 X90.4577 Y108.8949 E.01597
G1 X90.9314 Y108.9207 E.01379
G1 X91.5151 Y109.1170 E.02178
G1 X91.5332 Y111.9312 E.01833
G1 X91.5101 Y112.6590 E.00885
G1 X91.4682 Y112.9938 E.02293
G1 X91.5056 Y113.3944 E.02098
G1 X91.7014 Y113.6390 E.03389
G1 X92.0146 Y113.7505 E.01986
G1 X92.2776 Y113.8294 E.03124
G1 X92.6974 Y113.7858 E.02357
G1 X93.1167 Y113.5923 E.01973
G1 X93.5298 Y113.2643 E.01636
G1 X93.8474 Y112.8660 E.01717
G1 X94.0452 Y112.3350 E.01677
G1 X94.1395 Y108.8487 E.01544
G1 X94.1099 Y108.7844 E.01136
G1 X94.8132 Y108.6436 E.01831
G1 X95.3303 Y108.4005 E.02117
G1 X95.6758 Y108.5787 E.02883
G1 X95.8741 Y108.7872 E.02355
G1 X96.1075 Y109.0120 E.0292
G1 X96.3628 Y109.3381 E.00869
G1 X96.2177 Y109.8785 E.02098
G1 X96.0812 Y110.3156 E.00886
G1 X96.1630 Y110.5627 E.00547
G1 X96.2917 Y110.8728 E.02042
G1 X96.6632 Y110.9410 E.01318
G1 X96.8701 Y110.9312 E.01815
G1 X96.7881 Y110.9681 E.02063
G1 X96.5740 Y111.1011 E.01625
G1 X96.0353 Y111.2411 E.02417
G1 X95.6961 Y111.5996 E.01463
G1 X95.4756 Y112.0075 E.01233
G1 X95.3213 Y112.3869 E.00815
G1 X95.3206 Y112.9138 E.01373
G1 X95.4979 Y113.2929 E.01554
G1 X95.7913 Y113.4575 E.01527
G1 X95.9751 Y113.7502 E.01795
G1 X96.5170 Y113.8829 E.01739
G1 X97.0534 Y113.9295 E.00741
G1 X97.9494 Y113.8607 E.02036
G1 X98.4739 Y113.5731 E.01581
G1 X99.2524 Y113.1904 E.01564
G1 X99.7468 Y112.7752 E.01207
;WIDTH:0.453186
G1 X100.0738 Y112.4043 E.01083
;WIDTH:0.450003
G1 X100.3032 Y112.7860 E.00491
;WIDTH:0.493632
G1 X100.3906 Y113.2683 E.00543
;WIDTH:0.537261
G1 X100.5651 Y113.5746 E.00596
G1 X100.8562 Y113.7546 E.00979
;WIDTH:0.545426
G1 X101.1298 Y113.8225 E.0103
;WIDTH:0.573109
G1 X101.6155 Y113.7641 E.01086
G1 X102.1756 Y113.7482 E.01107
;WIDTH:0.532398
G1 X102.9450 Y113.7142 E.01022
;WIDTH:0.504332
G1 X103.5724 Y113.5627 E.02006
;WIDTH:0.550712
G1 X104.3182 Y113.4754 E.02444
;WIDTH:0.597091
G1 X104.5215 Y113.1732 E.02667
G1 X104.9873 Y113.0192 E.00795
G1 X105.1681 Y113.1256 E.02636
G1 X105.2297 Y113.6639 E.05148
;WIDTH:0.550712
G1 X105.4759 Y113.8573 E.02294
;WIDTH:0.504332
G1 X105.7496 Y114.1772 E.02319
;WIDTH:0.534733
G1 X106.1703 Y114.2692 E.01235
;WIDTH:0.573109
G1 X106.7027 Y114.2212 E.01332
G1 X107.1364 Y113.9771 E.02256
;WIDTH:0.537261
G1 X107.7327 Y113.7290 E.02161
G1 X108.0338 Y113.4566 E.01497
;WIDTH:0.493297
G1 X108.2199 Y113.5556 E.00842
;WIDTH:0.449333
G1 X108.3478 Y113.7415 E.0076
;WIDTH:0.452684
G1 X108.6517 Y113.9089 E.00792
;WIDTH:0.499999
G1 X109.0577 Y113.8965 E.00883
G1 X109.4689 Y113.6261 E.00795
G1 X109.8906 Y113.2876 E.00842
G1 X110.1766 Y113.3693 E.01997
G1 X110.2826 Y113.8264 E.02032
G1 X110.6716 Y113.9247 E.01934
G1 X111.0590 Y114.0072 E.01274
G1 X111.4779 Y113.8335 E.0097
;WIDTH:0.505496
G1 X111.7782 Y113.7000 E.01497
G1 X112.0581 Y113.5663 E.02719
;WIDTH:0.518498
G1 X112.1700 Y113.4747 E.02036
G1 X112.2824 Y113.3816 E.00752
;WIDTH:0.509606
G1 X112.3838 Y113.1701 E.02259
;WIDTH:0.499999
G1 X112.4957 Y112.9528 E.02237
G1 X112.5706 Y112.6847 E.02635
G1 X112.6168 Y112.4425 E.04059
G1 X112.5740 Y112.2033 E.02957
G1 X112.5216 Y111.7212 E.0111
;WIDTH:0.455015
G1 X112.3213 Y111.2082 E.01001
;WIDTH:0.410031
G1 X112.0376 Y110.7005 E.01682
;WIDTH:0.426968
G1 X111.7543 Y110.5405 E.0101
;WIDTH:0.463161
G1 X111.7964 Y110.0197 E.01105
;WIDTH:0.499353
G1 X112.1196 Y111.0355 E.012
;WIDTH:0.53341
G1 X112.5362 Y111.5542 E.01224
;WIDTH:0.567467
G1 X112.7378 Y112.1720 E.01309
;WIDTH:0.601523
G1 X112.9834 Y112.4851 E.01394
G1 X113.0704 Y112.7808 E.01404
G1 X113.1495 Y113.2514 E.01876
G1 X112.9793 Y113.7165 E.01927
G1 X112.7322 Y113.9197 E.01153
;WIDTH:0.558859
G1 X112.4207 Y114.0669 E.01065
;WIDTH:0.516195
G1 X112.2156 Y114.1360 E.00977
;WIDTH:0.473531
G1 X111.9823 Y114.2814 E.00889
;WIDTH:0.430866
G1 X111.7993 Y114.3854 E.02195
;WIDTH:0.426843
G1 X111.6057 Y114.5762 E.00839
;WIDTH:0.464602
G1 X111.5015 Y114.8021 E.00921
;WIDTH:0.499999
G1 X111.4276 Y115.3335 E.01193
G1 X111.4264 Y115.8238 E.00912
G1 X111.6143 Y116.2130 E.01501
G1 X111.9505 Y116.4065 E.02089
G1 X112.2468 Y116.4831 E.01162
G1 X112.5023 Y116.5151 E.0137
G1 X112.8988 Y116.3671 E.05526
G1 X113.6021 Y116.1705 E.03658
G1 X114.0863 Y116.0593 E.03756
G1 X114.2476 Y115.6405 E.02645
G1 X114.6671 Y115.1475 E.02354
G1 X114.9904 Y114.5089 E.03529
G1 X115.2705 Y113.5091 E.03125
;WIDTH:0.518498
