; HEADER_BLOCK_START
; generated by Creality_Print V7.0.0.4127 on 2026-01-28 at 22:35:54
; total layer number: 240
; filament_density: 1.24
; filament_diameter: 1.75
; max_z_height: 48.00
; creality_uuid: 0862b006-e03e-40db-887e-12afe82ee7ec
; HEADER_BLOCK_END

; MINX = 80.00
; MINY = 94.50
; MINZ = 0.00
; MAXX = 140.00
; MAXY = 125.50
; MAXZ = 48.00

; multicolor_method = 0
; THUMBNAIL_BLOCK_START

;
; THUMBNAIL_BLOCK_END

; THUMBNAIL_BLOCK_START

;
; THUMBNAIL_BLOCK_END

; external perimeters extrusion width = 0.42mm
; perimeters extrusion width = 0.45mm
; infill extrusion width = 0.45mm
; solid infill extrusion width = 0.45mm
; top infill extrusion width = 0.42mm
; first layer extrusion width = 0.50mm

; EXECUTABLE_BLOCK_START
M73 P0 R87
M201 X500 Y500 Z500 E5000
M203 X500 Y500 Z10 E50
M204 P500 R500 T500
M205 X10.00 Y10.00 Z0.40 E5.00 ; sets the jerk limits, mm/sec
; max_print_temp = 60,220
;TYPE:Custom
M220 S100 ;Reset Feedrate
M221 S100 ;Reset Flowrate

M140 S60 ;Set final bed temp
G28 ;Home
G92 E0 ;Reset Extruder
G1 Z2.0 F3000 ;Move Z Axis up
M104 S220 ;Set final nozzle temp
G1 X10.4000 Y145.0000 Z0.28 F5000.0 ;Move to start position
M190 S60 ;Wait for bed temp to stabilize
M109 S220 ;Wait for nozzle temp to stabilize
G1 X10.4000 Y20.0000 Z0.28 F1500.0 E15 ;Draw the first line
G1 X81.1090 Y98.9020 Z0.28 F5000.0 ;Move to side a little
G1 X81.9910 Y98.3200 Z0.28 F1500.0 E30 ;Draw the second line
G92 E0  ;Reset Extruder
G1 E-1.0000 F1800 ;Retract a bit
G1 Z2.0 F3000 ;Move Z Axis up
G1 E0.0000 F1800
G90
G21
M83 ; use relative distances for extrusion
;filament start gcode
G1 E-5 F3000
G1 Z.2 F3600
M106 S0
;LAYER_CHANGE
;:0.2
;HEIGHT:0.2
;BEFORE_LAYER_CHANGE
;0.2
G92 E0
;TIME_ELAPSED:58.078922
;_SET_FAN_SPEED_CHANGING_LAYER
M204 S500
M205 X8 Y8
G1 X111.5830 Y95.8990 Z.6 F3600
G1 Z.2
G1 E5 F2400
;TYPE:Skirt
;WIDTH:0.5
G1 F3000
G1 X120.6900 Y98.7250 E.04014
G1 X123.0350 Y100.3150 E.04135
G1 X125.0670 Y102.1260 E.03931
G1 X126.8940 Y104.2430 E.04027
G1 X128.4070 Y106.5590 E.90543
G1 X128.9650 Y107.9020 E.05759
G1 X129.1460 Y108.6310 E.04893
G1 X129.2710 Y109.6530 E.06576
G1 X129.1890 Y111.1250 E.09783
G1 X129.0250 Y111.8900 E.09894
G1 X128.6920 Y112.8480 E.10282
G1 X127.6920 Y114.6210 E.10768
G1 X126.3990 Y116.3890 E.10345
G1 X124.7810 Y118.1580 E.10628
G1 X123.0010 Y119.7120 E.10514
G1 X121.7120 Y120.6390 E.05526
G1 X120.0330 Y121.6430 E.02857
G1 X118.3540 Y122.4520 E.03911
G1 X116.8950 Y123.0140 E.05603
G1 X115.1000 Y123.5420 E.02976
G1 X113.5200 Y123.8690 E.03854
G1 X111.7450 Y124.0890 E.07736
G1 X109.8020 Y124.1560 E.08325
G1 X84.6300 Y122.5860 E.09112
G1 X83.0870 Y122.1890 E.0898
G1 X81.9910 Y121.6800 E.06035
G1 X80.7360 Y120.7930 E.07437
G1 X79.6560 Y119.6290 E.07082
G1 X79.0480 Y118.6760 E.05941
G1 X78.6130 Y117.7160 E.07113
G1 X78.3240 Y116.7550 E.06131
G1 X78.1600 Y115.7610 E.06798
G1 X78.1480 Y104.3680 E.0739
G1 X78.4550 Y102.7530 E.95852
G1 X79.0320 Y101.3560 E.06056
G1 X79.9610 Y99.9900 E.04595
G1 X81.0702 Y98.8822 E.05841
G1 X81.3838 Y99.2200 E.06033
G1 X82.2210 Y98.6933 E.04295
G1 X83.1557 Y98.2519 E.04006
G1 X84.0932 Y97.9607 E.03812
G1 X85.0819 Y97.7957 E.0383
G1 X108.8486 Y96.3142 E.43302
G1 X110.3354 Y96.2814 E.06248
G1 X111.5874 Y96.3372 E.05742
G1 X113.2809 Y96.5352 E.0628
G1 X115.7401 Y97.0773 E.05861
G1 X118.1341 Y97.9235 F3600
G1 F3000
G1 X120.7442 Y99.2604 E.03774
G1 X123.0169 Y100.8491 E.03886
G1 X124.8995 Y102.5699 E.03699
G1 X126.6951 Y104.6930 E.03789
G1 X128.0889 Y106.8715 E.90491
G1 X128.5713 Y108.0638 E.05644
G1 X128.8532 Y109.7071 E.04754
G1 X128.7714 Y111.0926 E.06473
G1 X128.6134 Y111.8150 E.09564
G1 X128.2506 Y112.8208 E.09645
G1 X127.2455 Y114.5513 E.0471
G1 X125.7422 Y116.5414 E.06419
G1 X124.1776 Y118.1756 E.10528
G1 X122.4228 Y119.6379 E.09682
G1 X121.0356 Y120.5785 E.10558
G1 X119.4587 Y121.4660 E.09818
G1 X117.9795 Y122.1448 E.04873
G1 X116.2327 Y122.7766 E.06321
G1 X114.7530 Y123.1783 E.05257
G1 X112.8907 Y123.5246 E.02787
G1 X111.0831 Y123.6951 E.04037
G1 X109.7626 Y123.7178 E.07573
G1 X84.6592 Y122.1515 E.09446
G1 X83.2060 Y121.7751 E.08575
G1 X82.1656 Y121.2885 E.08666
G1 X80.9903 Y120.4535 E.06356
G1 X79.9737 Y119.3524 E.06862
G1 X79.4023 Y118.4507 E.06175
G1 X78.9957 Y117.5405 E.0705
G1 X78.7261 Y116.6294 E.05817
G1 X78.5748 Y115.6884 E.07187
G1 X78.5669 Y104.3751 E.06895
G1 X78.8277 Y102.9632 E.0501
G1 X79.4079 Y101.5327 E.95582
G1 X80.2929 Y100.2386 E.05697
G1 X81.3451 Y99.2480 E.04346
G1 X82.2118 Y98.6728 E.05459
G1 X83.0977 Y98.2600 E.05672
G1 X90.4961 Y100.1764 E.04034
G1 X119.1749 Y107.6033 E.03768
G1 X117.9379 Y107.6129 E.03591
G1 X117.3009 Y107.7485 E.03609
G1 X116.9627 Y107.9437 E.42979
G1 X116.7661 Y108.1451 E.0544
G1 X116.4760 Y107.8606 E.05844
G1 X116.0322 Y107.6771 E.05935
G1 X115.6592 Y107.6615 E.05466
; OBJECT_ID: 74
; printing object 3DBenchy.stl id:0 copy 0
G1 E-4.5
;WIPE_START
G1 X114.9555 Y108.0416 E-.24517
G1 X114.7014 Y108.3797 E-.22983
;WIPE_END
G1 E-.025
G1 X114.3807 Y108.4393 Z.6 F3600
G1 X114.0979 Y108.0396 Z.6
G1 Z.2
G1 E5 F2400
;TYPE:Inner wall
;WIDTH:0.499999
G1 F900
G1 X112.4969 Y107.7748 E.04727
G1 X112.2597 Y107.9243 E.02437
G1 X112.1087 Y108.1309 E.01436
G1 X111.7787 Y107.8332 E.01022
G1 X111.3305 Y107.6612 E.01554
G1 X110.9080 Y107.6779 E.01787
G1 X110.4747 Y107.9034 E.01389
G1 X110.1395 Y108.2374 E.01519
G1 X110.0047 Y108.0864 E.01519
G1 X109.5163 Y107.7436 E.01579
G1 X109.1810 Y107.6361 E.01689
G1 X108.7368 Y107.6777 E.01472
G1 X108.5209 Y107.7432 E.0183
G1 X108.2449 Y107.9113 E.01827
G1 X107.9236 Y108.2746 E.0174
G1 X107.7899 Y108.6425 E.01618
G1 X107.7976 Y109.1646 E.01302
G1 X107.9610 Y109.6082 E.01048
G1 X108.2242 Y110.1228 E.00948
G1 X108.6147 Y110.7884 E.01723
G1 X108.5037 Y110.9781 E.01811
G1 X108.2680 Y111.4750 E.01606
G1 X108.1085 Y111.2153 E.01853
G1 X107.8984 Y110.9777 E.01787
G1 X107.3949 Y110.6517 E.00795
G1 X107.1212 Y110.5723 E.0226
G1 X106.6572 Y110.5550 E.01325
G1 X106.3584 Y110.6152 E.01691
G1 X106.4017 Y110.2863 E.00854
G1 X106.4306 Y109.7693 E.01218
G1 X106.3869 Y109.1983 E.01826
G1 X106.3079 Y108.6485 E.01465
G1 X106.1585 Y108.1628 E.01955
G1 X105.8846 Y107.5985 E.01769
G1 X105.5262 Y107.1155 E.02157
G1 X105.1319 Y106.7565 E.02896
G1 X104.6403 Y106.4651 E.00827
G1 X104.1260 Y106.2919 E.02059
G1 X103.5108 Y106.1897 E.01175
G1 X102.9426 Y106.1572 E.01122
G1 X101.7034 Y106.1471 E.02222
G1 X101.3315 Y106.1868 E.01046
G1 X100.8109 Y106.3731 E.01744
G1 X100.4719 Y106.6723 E.01143
G1 X100.2935 Y106.9881 E.01271
G1 X100.1917 Y107.4895 E.01941
G1 X99.9617 Y107.0375 E.02138
G1 X99.6666 Y106.7029 E.02081
G1 X99.2911 Y106.3878 E.0191
G1 X98.6580 Y106.1144 E.02374
G1 X98.0550 Y106.0096 E.0228
G1 X97.4798 Y106.0045 E.02016
G1 X96.9084 Y106.0872 E.02165
G1 X96.4718 Y106.2300 E.02051
G1 X96.1275 Y106.4450 E.0236
G1 X95.7185 Y106.7738 E.02155
G1 X95.6708 Y106.6965 E.04697
G1 X95.4571 Y106.4650 E.01408
G1 X95.2085 Y106.3044 E.02084
G1 X94.5826 Y106.1722 E.01699
G1 X90.5598 Y106.1701 E.01352
;WIDTH:0.51298
G1 X90.1809 Y106.3194 E.01958
G1 X89.8553 Y106.6315 E.02011
;WIDTH:0.499999
G1 X89.6854 Y106.8978 E.01678
G1 X89.2901 Y106.5247 E.01826
G1 X88.6805 Y106.1991 E.02597
G1 X88.2099 Y106.0691 E.02316
G1 X87.3256 Y106.0161 E.02183
G1 X86.7107 Y106.1027 E.02188
G1 X86.3777 Y106.2158 E.01734
G1 X85.8508 Y106.4498 E.0153
G1 X85.3674 Y106.8007 E.0198
G1 X84.9335 Y107.2707 E.00375
G1 X84.9437 Y105.2452 E.01188
G1 X85.0359 Y104.7257 E.01098
G1 X85.2303 Y104.4413 E.0242
G1 X85.5111 Y104.2635 E.15285
G1 X85.8518 Y104.1761 E.01544
G1 X109.2034 Y102.7633 E.01694
G1 X110.2962 Y102.7430 E.01181
G1 X111.1019 Y102.7801 E.02106
G1 X111.8838 Y102.8616 E.02614
G1 X112.6686 Y102.9884 E.01841
G1 X113.7132 Y103.2282 E.03361
G1 X114.4738 Y103.4549 E.02356
G1 X115.4878 Y103.8338 E.0133
G1 X116.2974 Y104.2039 E.02183
G1 X117.1688 Y104.6757 E.02259
G1 X117.8557 Y105.1060 E.02419
G1 X118.7286 Y105.7391 E.0772
G1 X119.4880 Y106.3812 E.01969
G1 X120.1239 Y106.9960 E.01248
G1 X120.5633 Y107.4796 E.01211
G1 X120.7264 Y107.7019 E.01291
G1 X120.8894 Y107.9241 E.88857
G1 X120.7416 Y107.8506 E.04107
G1 X120.5839 Y107.7624 E.03029
G1 X120.0511 Y107.6424 E.0296
G1 X119.1878 Y107.6382 E.03
G1 X117.8950 Y107.6383 E.04061
G1 X117.2591 Y107.7718 E.03004
G1 X117.1863 Y107.8085 E.04101
G1 X120.0439 Y111.3016 E.03373
G1 X120.8060 Y110.3020 E.03756
G1 X121.1443 Y109.7477 E.03067
G1 X121.2921 Y109.1497 E.0409
G1 X121.3042 Y108.8643 E.0377
G1 X121.2721 Y108.6093 E.03357
G1 X121.2370 Y108.3582 E.02479
;WIDTH:0.531775
G1 X121.3693 Y108.5030 E.01114
;WIDTH:0.56355
G1 X121.7684 Y109.0350 E.01186
G1 X122.2216 Y109.7843 E.00715
;WIDTH:0.536352
G1 X122.2704 Y110.0345 E.00678
;WIDTH:0.509154
G1 X122.2270 Y110.2143 E.02052
;WIDTH:0.499999
G1 X121.7987 Y110.9324 E.03235
G1 E-4.5 F3000
;WIPE_START
G1 F900
G1 X120.1060 Y111.3326 E-.30489
G1 X120.6937 Y113.1166 E-.15231
G1 X120.6226 Y113.2031 E-.0178
;WIPE_END
G1 E-.025 F3000
G1 X113.2267 Y111.5768 Z.6 F3600
G1 Z.2
G1 E5 F2400
G1 F900
G1 X100.2838 Y109.2934 E.04766
G1 X100.2872 Y110.1709 E.0245
G1 X100.1150 Y109.8541 E.02287
G1 X99.7991 Y109.4958 E.01036
;WIDTH:0.542351
G1 X99.9084 Y109.3432 E.01025
;WIDTH:0.584702
G1 X100.0198 Y109.1778 E.01112
G1 X100.1336 Y109.0173 E.00904
;WIDTH:0.541958
G1 X100.2232 Y108.8935 E.02699
;WIDTH:0.499999
G1 X100.2707 Y108.9846 E.03266
G1 X100.2937 Y109.1334 E.00926
G1 X100.3156 Y109.2744 E.00665
G1 X100.3158 Y110.1518 E.03132
G1 X100.1390 Y109.8353 E.04547
G1 X99.8648 Y109.5316 E.02061
G1 X92.2378 Y109.0376 E.0251
G1 X87.4977 Y108.7341 F3600
;TYPE:Outer wall
;WIDTH:0.667324
G1 F900
G1 X88.4679 Y109.1795 E.00591
G1 E-4.5 F3000
;WIPE_START
G1 F900
G1 X89.7075 Y108.9404 E-.475
;WIPE_END
G1 E-.025 F3000
G1 X90.1519 Y108.6342 Z.6 F3600
G1 X90.4406 Y108.8004 Z.6
G1 Z.2
G1 E5 F2400
;TYPE:Inner wall
;WIDTH:0.567086
G1 F900
G1 X91.4808 Y111.9295 E.00573
;WIDTH:0.531887
G1 X91.4500 Y112.6333 E.00535
;WIDTH:0.496688
G1 X91.5039 Y112.9466 E.00496
;WIDTH:0.461488
G1 X91.7030 Y113.3435 E.03019
G1 X92.0170 Y113.6036 E.01286
G1 X92.2730 Y113.7206 E.01618
G1 X92.6837 Y113.8028 E.0063
;WIDTH:0.496688
G1 X93.0997 Y113.7539 E.00691
;WIDTH:0.531887
G1 X93.5128 Y113.5746 E.00744
;WIDTH:0.567086
G1 X93.8369 Y113.2671 E.00624
G1 E-4.5 F3000
;WIPE_START
G1 F900
G1 X94.1158 Y108.8486 E-.02514
G1 X94.8337 Y108.7987 E-.03123
G1 X95.3248 Y108.6465 E-.03123
G1 X95.6636 Y108.3886 E-.206
G1 X95.8557 Y108.5956 E-.08776
G1 X96.0868 Y108.8211 E-.09363
;WIPE_END
G1 E-.025 F3000
G1 X96.1534 Y109.3338 Z.6 F3600
G1 X96.0801 Y109.8683 Z.6
G1 Z.2
G1 E5 F2400
;WIDTH:0.499999
G1 F900
G1 X96.8596 Y110.9005 E.02137
G1 X96.7446 Y110.8773 E.0192
G1 X96.4167 Y110.8894 E.01672
G1 X95.9559 Y111.0661 E.01201
G1 X95.7358 Y111.2265 E.02002
G1 X95.4710 Y111.5825 E.01941
G1 X95.3456 Y111.9905 E.007
G1 X95.3384 Y112.3554 E.01245
G1 X95.5040 Y112.9078 E.01799
G1 X95.7910 Y113.3027 E.02175
G1 X95.9706 Y113.4607 E.01184
G1 X96.5009 Y113.7577 E.10517
G1 X97.0391 Y113.9004 E.02644
G1 X97.9349 Y113.9505 E.01175
G1 X98.4590 Y113.8749 E.01675
G1 X99.2364 Y113.5858 E.01546
G1 X99.7405 Y113.2073 E.01065
G1 X100.0791 Y112.7948 E.01583
G1 X100.3124 Y112.4197 E.01582
G1 X100.3904 Y112.8553 E.01691
G1 X100.5741 Y113.2679 E.01664
G1 X100.8610 Y113.5603 E.01621
G1 X101.1284 Y113.7016 E.02038
G1 X101.6050 Y113.7882 E.13243
G1 X102.1627 Y113.7485 E.02759
G1 X102.9232 Y113.7512 E.01939
G1 X103.5441 Y113.7086 E.01605
G1 X104.2977 Y113.5521 E.01082
G1 X104.5137 Y113.4672 E.01197
G1 X104.9898 Y113.1804 E.01064
G1 X105.1681 Y113.0229 E.01681
G1 X105.2233 Y113.1494 E.02005
G1 X105.4869 Y113.6242 E.01508
G1 X105.7502 Y113.8518 E.01078
G1 X106.1611 Y114.1027 E.01807
;WIDTH:0.481684
G1 X106.6912 Y114.2302 E.00767
;WIDTH:0.465619
G1 X107.1184 Y114.2014 E.00418
;WIDTH:0.499999
G1 X107.7076 Y113.9574 E.01212
G1 X108.0135 Y113.7145 E.01834
G1 X108.2129 Y113.4480 E.01005
G1 X108.3517 Y113.6007 E.01661
G1 X108.6562 Y113.7978 E.01597
G1 X109.0557 Y113.8914 E.01379
G1 X109.4556 Y113.8508 E.02178
G1 X109.8704 Y113.6197 E.01833
G1 X110.1672 Y113.2641 E.00885
G1 X110.2756 Y113.4176 E.02293
G1 X110.6652 Y113.7899 E.02098
G1 X111.0552 Y113.9367 E.03389
G1 X111.4677 Y113.9438 E.01986
G1 X111.7568 Y113.8070 E.03124
G1 X112.0468 Y113.6680 E.02357
G1 X112.1605 Y113.5722 E.01973
G1 X112.2740 Y113.4742 E.01636
G1 X112.3866 Y113.3782 E.01717
G1 X112.5021 Y113.1670 E.01677
G1 X112.5593 Y112.9285 E.01544
G1 X112.6185 Y112.6889 E.01136
G1 X112.5627 Y112.4400 E.01831
G1 X112.5070 Y112.1919 E.02117
G1 X112.3048 Y111.7049 E.02883
G1 X112.0254 Y111.1928 E.02355
G1 X111.7454 Y110.6817 E.0292
G1 X111.8085 Y110.5213 E.00869
G1 X112.1022 Y110.0227 E.02098
G1 X112.5210 Y111.0580 E.00886
G1 X112.7414 Y111.5765 E.00547
G1 X112.9620 Y112.1536 E.02042
G1 X113.0572 Y112.4520 E.01318
G1 X113.1488 Y112.7502 E.01815
G1 X112.9719 Y113.2393 E.02063
G1 X112.7460 Y113.7289 E.01625
G1 X112.4195 Y113.9112 E.02417
G1 X112.2089 Y114.0107 E.01463
G1 X111.9948 Y114.1055 E.01233
G1 X111.8068 Y114.2509 E.00815
G1 X111.6228 Y114.3995 E.01373
G1 X111.5049 Y114.5749 E.01554
G1 X111.4455 Y114.7908 E.01527
G1 X111.4280 Y115.3129 E.01795
G1 X111.6137 Y115.8170 E.01739
G1 X111.9441 Y116.2106 E.00741
G1 X112.2340 Y116.3889 E.02036
G1 X112.4833 Y116.4660 E.01581
G1 X112.8742 Y116.5151 E.01564
G1 X113.5757 Y116.3756 E.01207
;WIDTH:0.453186
G1 X114.0622 Y116.1826 E.01083
;WIDTH:0.450003
G1 X114.2312 Y116.0738 E.00491
;WIDTH:0.493632
G1 X114.6665 Y115.6673 E.00543
;WIDTH:0.537261
G1 X114.9981 Y115.1656 E.00596
G1 X115.2819 Y114.5232 E.00979
;WIDTH:0.545426
G1 X115.6649 Y113.5203 E.0103
;WIDTH:0.573109
G1 X115.9231 Y112.7828 E.01086
G1 X115.9961 Y112.4958 E.01107
;WIDTH:0.532398
G1 X116.0703 Y112.2099 E.01022
;WIDTH:0.504332
G1 X116.2453 Y111.6855 E.02006
;WIDTH:0.550712
G1 X116.3672 Y111.3904 E.02444
;WIDTH:0.597091
G1 X116.4898 Y111.0967 E.02667
G1 X116.6128 Y110.8039 E.00795
G1 X116.7158 Y110.5204 E.02636
G1 X116.8185 Y110.2373 E.05148
;WIDTH:0.550712
G1 X116.9212 Y109.9540 E.02294
;WIDTH:0.504332
G1 X117.1859 Y110.0990 E.02319
;WIDTH:0.534733
G1 X117.5824 Y110.2239 E.01235
;WIDTH:0.573109
G1 X117.3262 Y110.5557 E.01332
G1 X117.1912 Y110.7745 E.02256
;WIDTH:0.537261
G1 X117.0517 Y110.9976 E.02161
G1 X116.9108 Y111.2213 E.01497
;WIDTH:0.493297
G1 X116.7692 Y111.4441 E.00842
;WIDTH:0.449333
G1 X116.4761 Y112.0718 E.0076
;WIDTH:0.452684
G1 X116.4139 Y112.3338 E.00792
;WIDTH:0.499999
G1 X116.3544 Y112.5901 E.00883
G1 X116.3699 Y112.9067 E.00795
G1 X116.4379 Y113.1358 E.00842
G1 X116.6212 Y113.4869 E.01997
G1 X117.0450 Y113.8421 E.02032
G1 X117.3308 Y113.9590 E.01934
G1 X117.6936 Y114.0005 E.01274
G1 X119.1519 Y113.9544 E.0097
;WIDTH:0.505496
G1 X118.3950 Y114.5357 E.01497
G1 X117.5750 Y115.0941 E.02719
;WIDTH:0.518498
G1 X116.9743 Y115.4588 E.02036
G1 X116.4201 Y115.7535 E.00752
;WIDTH:0.509606
G1 X115.5683 Y116.1433 E.02259
;WIDTH:0.499999
G1 X114.7951 Y116.4421 E.02237
G1 X113.4647 Y116.8514 E.02635
G1 X112.4181 Y117.0650 E.04059
G1 X111.5868 Y117.1787 E.02957
G1 X110.7162 Y117.2449 E.0111
;WIDTH:0.455015
G1 X109.7931 Y117.2576 E.01001
;WIDTH:0.410031
G1 X109.1493 Y117.2295 E.01682
;WIDTH:0.426968
G1 X86.0370 Y115.8224 E.0101
;WIDTH:0.463161
G1 X85.5130 Y115.7465 E.01105
;WIDTH:0.499353
G1 X85.2283 Y115.5665 E.012
;WIDTH:0.53341
G1 X85.0391 Y115.3249 E.01224
;WIDTH:0.567467
G1 X84.9382 Y114.9052 E.01309
;WIDTH:0.601523
G1 X84.9368 Y112.6207 E.01394
G1 X85.1949 Y112.9314 E.01404
G1 X85.6910 Y113.3522 E.01876
G1 X86.3873 Y113.7078 E.01927
G1 X87.1837 Y113.8939 E.01153
;WIDTH:0.558859
G1 X87.8917 Y113.9056 E.01065
;WIDTH:0.516195
G1 X88.5948 Y113.7863 E.00977
;WIDTH:0.473531
G1 X89.0422 Y113.6195 E.00889
;WIDTH:0.430866
G1 X89.4912 Y113.3338 E.02195
;WIDTH:0.426843
G1 X89.8102 Y113.0246 E.00839
;WIDTH:0.464602
G1 X90.0970 Y112.5840 E.00921
;WIDTH:0.499999
G1 X90.2476 Y112.1759 E.01193
G1 X90.2319 Y111.7467 E.00912
G1 X90.1126 Y111.4338 E.01501
G1 X89.9192 Y111.1507 E.02089
G1 X89.7073 Y110.9466 E.01162
G1 X89.3729 Y110.7579 E.0137
G1 X88.9827 Y110.6564 E.05526
G1 X88.5086 Y110.6764 E.03658
G1 X88.1120 Y110.8232 E.03756
G1 X87.7236 Y111.1434 E.02645
G1 X87.5136 Y111.1908 E.02354
G1 X87.2093 Y111.1108 E.03529
